!!!COM: Beethoven, Ludwig van
!!!CDT: 1770///-1827///
!!!OTL: Piano Sonata no. 21 in C major
!!!OTP: Waldstein
!!!ODT: 1803///-1804///
!!!ODE: Graf Ferdinand von Waldstein
!!!OMD: Rondo: Allegretto moderato
!!!OPS: 53
!!!OMV: 3
**kern	**kern	**dynam
*staff2	*staff1	*staff1/2
*Ipiano	*Ipiano	*Ipiano
*clefF4	*clefF4	*clefF4
*k[]	*k[]	*k[]
*C:	*C:	*C:
*M2/4	*M2/4	*M2/4
*MM132	*MM132	*MM132
=1-	=1-	=1-
8CC/	16r	.
.	(16E\LL	pp
8r	16G\	.
.	16c\JJ	.
*clefG2	*	*
4gg''\	16e\LL	.
.	16E\	.
.	16G\	.
.	16c\JJ	.
=2	=2	=2
(4.gg\	16e\LL	.
.	16E\	.
.	16G\	.
.	16c\JJ	.
.	16e\LL	.
.	16E\	.
8ee\	16G\	.
.	16c\JJ)	.
=3	=3	=3
4dd\	16r	.
.	16F\LL	.
.	16G\	.
.	16B\JJ	.
4g/	16d\LL	.
.	16F\	.
.	16G\	.
.	16B\JJ	.
=4	=4	=4
4cc\	16r	.
.	16E\LL	.
.	16G\	.
.	16c\JJ	.
8ee\)	16e\LL	.
.	16E\	.
*clefF4	*	*
16r	16G\	.
(16C/	16c\JJ	.
=5	=5	=5
8CC/)	16r	.
.	16E\LL	.
8r	16G\	.
.	16c\JJ	.
*clefG2	*	*
4gg''\	16e\LL	.
.	16E\	.
.	16G\	.
.	16c\JJ	.
=6	=6	=6
(4.gg\	(16e\LL	.
.	16E\	.
.	16G\	.
.	16c\JJ	.
.	16e\LL	.
.	16E\	.
8ee\	16G\	.
.	16c\JJ)	.
=7	=7	=7
4dd\	16r	.
.	16F\LL	.
.	16G\	.
.	16B\JJ	.
4g/	16d\LL	.
.	16F\	.
.	16G\	.
.	16B\JJ	.
=8	=8	=8
8cc\)	8r	.
8r	16E\LL	.
.	16G\JJ	.
*	*clefG2	*clefG2
8.r	16c/LL	.
.	16e/	.
.	16d/	.
*clefF4	*	*
(16GG/	16c/JJ	pp
=9	=9	=9
8GGG/)	16B/LL	.
.	16G/	.
8r	16B/	.
.	16d/JJ	.
*clefG2	*	*
4ff''\	16g/LL	.
.	16G/	.
.	16B/	.
.	16d/JJ	.
=10	=10	=10
(4.ff\	16g/LL	.
.	16G/	.
.	16B/	.
.	16d/JJ	.
.	16g/LL	.
.	16G/	.
8dd\	16B/	.
.	16g/JJ	.
=11	=11	=11
4ee\	16r	.
.	16G/LL	.
.	16c/	.
.	16g/JJ	.
4cc\	16r	.
.	16G/LL	.
.	16e/	.
.	16g/JJ	.
=12	=12	=12
4b\	16r	.
.	16G/LL	.
.	16d/	.
.	16g/JJ	.
8dd\)	16r	.
.	16G/LL	.
*clefF4	*	*
16r	16B/	.
(16GG/	16g/JJ	pp
=13	=13	=13
8GGG/)	16r	.
.	16G/LL	pp
8r	16B/	.
.	16d/JJ	.
*clefG2	*	*
4ff''\	16g/LL	.
.	16G/	.
.	16B/	.
.	16d/JJ	.
=14	=14	=14
(4.ff\	16g/LL	.
.	16G/	.
.	16B/	.
.	16d/JJ	.
.	16g/LL	.
.	16G/	.
8dd\	16B/	.
.	16g/JJ	.
=15	=15	=15
4ee-\	16r	.
.	16G/LL	.
.	16c/	.
.	16g/JJ	.
4cc\	16r	.
.	16G/LL	.
.	16e-/	.
.	16g/JJ	.
=16	=16	=16
4b\	16r	.
.	16G/LL	.
.	16d/	.
.	16g/JJ	.
4dd\)	16r	.
.	16G/LL	.
.	16B/	.
.	16g/JJ	.
=17	=17	=17
(4een\	16r	.
.	(16G/LL	.
.	16c/	.
.	16g/JJ)	.
4cc\	16r	.
.	(16G/LL	.
.	16en/	.
.	16g/JJ)	.
=18	=18	=18
4b\	16r	.
.	16G/LL	.
.	16d/	.
.	16g/JJ	.
4dd\)	16r	.
.	16G/LL	.
.	16B/	.
.	16g/JJ	.
=19	=19	=19
(4ee-\	16r	.
.	(16G/LL	.
.	16c/	.
.	16g/JJ)	.
4cc\)	16r	.
.	(16G/LL	.
.	16c/	.
.	16e-/JJ)	.
=20	=20	=20
(4gg'\	16r	.
.	(16G/LL	.
.	16B/	.
.	16d/JJ)	.
4gg'\)	16r	.
.	(16G/LL	.
.	16c/	.
.	16e-/JJ)	.
=21	=21	=21
(4gg'\	16r	.
.	(16G/LL	.
.	16B/	.
.	16d/JJ)	.
4gg'\)	16r	.
.	(16G/LL	.
.	16c/	.
.	16e-/JJ)	.
=22	=22	=22
(4gg'\	16r	.
.	(16G/LL	.
.	16B/	.
.	16d/JJ)	.
4gg'\)	16r	.
.	(16G/LL	.
.	16A/	.
.	16c/JJ)	.
=23	=23	=23
4gg\	16r	.
.	(16G/LL	pp
.	16B/	.
.	16d/JJ	.
4r	16g/LL	.
.	16b/	.
.	16a/	.
.	16f#/JJ	.
=24	=24	=24
2r	16g/LL	.
.	16B/	.
.	16d/	.
.	16g/JJ	.
.	16b\LL	.
.	16dd\	.
.	16cc\	.
.	16a\JJ)	.
=25	=25	=25
2r	16b\LL	.
.	16g\	.
.	16b\	.
.	16dd\JJ	.
.	16gg\LL	.
.	16bb\	.
.	16aa\	.
.	16ff#\JJ	.
=26	=26	=26
2r	16gg\LL	<
.	16bb\	.
.	16aa\	.
.	16ccc\JJ	.
.	16bb\LL	.
.	16ddd\	.
.	16ccc#\	.
.	16eee\JJ	.
=27	=27	=27
2r	16ddd\LL	.
.	16fff\	.
.	16eee\	.
.	16ggg\JJ	.
.	16fff\LL	.
.	16aaa\	.
.	16ggg\	.
.	16eee\JJ	.
=28	=28	=28
2r	16ddd\LL	.
.	16fff\	.
.	16eee\	.
.	16ggg\JJ	.
.	16fff\LL	.
.	16aaa\	.
.	16ggg\	.
.	16eee\JJ	.
=29	=29	=29
2r	16ddd\LL	>
.	16fff\	.
.	16eee\	.
.	16cccn\JJ	.
.	16bb\LL	.
.	16ddd\	.
.	16ccc\	.
.	16aa\JJ	.
=30	=30	=30
2r	16gg\LL	.
.	16bb\	.
.	16aa\	.
.	16ff\JJ	.
.	16ee\LL	.
.	16gg\	.
.	16ff\	.
.	16dd\JJ	.
*clefF4	*	*
=31	=31	=31
16CC/	8cc\	pp
16GG/LL	.	.
16C/	8r	.
16E/JJ	.	.
16G\LL	4gg''\ 4ggg''\	.
16C\	.	.
16E\	.	.
16G\JJ	.	.
=32	=32	=32
16c\LL	4.gg\ (4.ggg\	.
16E\	.	.
16G\	.	.
16c\JJ	.	.
16e\LL	.	.
16G\	.	.
16c\	8ee\ 8eee\	.
16e\JJ	.	.
=33	=33	=33
16f\LL	4dd\ 4ddd\	.
16e\	.	.
16d\	.	.
16c\JJ	.	.
16B\LL	4g\ 4gg\	.
16A\	.	.
16G\	.	.
16F\JJ	.	.
=34	=34	=34
16E\LL	4cc\ 4ccc\	.
16G\	.	.
16C\	.	.
16E\JJ	.	.
16GG/LL	8ee\ 8eee\)	.
16C/	.	.
16EE/	8r	.
16GG/JJ	.	.
=35	=35	=35
16CC/LL	4r	.
16GG/	.	.
16C/	.	.
16E/JJ	.	.
16G\LL	4gg''\ 4ggg''\	.
16C\	.	.
16E\	.	.
16G\JJ	.	.
=36	=36	=36
16c\LL	4.gg\ (4.ggg\	.
16E\	.	.
16G\	.	.
16c\JJ	.	.
16e\LL	.	.
16G\	.	.
16c\	8ee\ 8eee\	.
16e\JJ	.	.
=37	=37	=37
16f\LL	4dd\ 4ddd\	.
16e\	.	.
16d\	.	.
16c\JJ	.	.
16B\LL	4g\ 4gg\	.
16G\	.	.
16A\	.	.
16B\JJ	.	.
=38	=38	=38
16c\LL	8cc\ 8ccc\)	.
16B'\	.	.
16A'\	8r	.
16G'\JJ	.	.
16F'\LL	4r	.
16E'\	.	.
16D'\	.	.
16C'\JJ	.	.
=39	=39	=39
16GG'\LL	4r	.
16BB\	.	.
16D\	.	.
16G\JJ	.	.
16BB\LL	4ff''\ 4fff''\	.
16D\	.	.
16G\	.	.
16B\JJ	.	.
=40	=40	=40
16D\LL	4.ff\ (4.fff\	.
16G\	.	.
16B\	.	.
16d\JJ	.	.
16G\LL	.	.
16B\	.	.
16d\	8dd\ 8ddd\	.
16g\JJ	.	.
=41	=41	=41
16G\LL	4ee\ 4eee\	.
16c\	.	.
16g\	.	.
16c\JJ	.	.
16G\LL	4cc\ 4ccc\	.
16e\	.	.
16g\	.	.
16e\JJ	.	.
=42	=42	=42
16G\LL	4b\ 4bb\	.
16d\	.	.
16g\	.	.
16d\JJ	.	.
16G\LL	8dd\ 8ddd\)	.
16B\	.	.
16g\	8r	.
16B\JJ	.	.
=43	=43	=43
16GG\LL	4r	.
16BB\	.	.
16D\	.	.
16G\JJ	.	.
16BB\LL	4ff''\ 4fff''\	.
16D\	.	.
16G\	.	.
16B\JJ	.	.
=44	=44	=44
16D\LL	4.ff\ (4.fff\	.
16G\	.	.
16B\	.	.
16d\JJ	.	.
16G\LL	.	.
16B\	.	.
16d\	8dd\ 8ddd\	.
16g\JJ	.	.
=45	=45	=45
16G\LL	4ee-\ 4eee-\	.
16c\	.	.
16g\	.	.
16c\JJ	.	.
16G\LL	4cc\ 4ccc\	.
16e-\	.	.
16g\	.	.
16e-\JJ	.	.
=46	=46	=46
16G\LL	4b\ 4bb\	.
16d\	.	.
16g\	.	.
16d\JJ	.	.
16G\LL	4dd\ 4ddd\)	.
16B\	.	.
16g\	.	.
16B\JJ	.	.
=47	=47	=47
*clefF4	*	*
16G\LL	4ee\ (4eeen\	<
16c\	.	.
16g\	.	.
16c\JJ	.	.
16G\LL	4cc\ 4ccc\	.
16en\	.	.
16g\	.	.
16e\JJ	.	.
=48	=48	=48
16G\LL	4b\ 4bb\	.
16d\	.	.
16g\	.	.
16d\JJ	.	.
16G\LL	4dd\ 4ddd\	.
16B\	.	.
16g\	.	.
16B\JJ	.	.
=49	=49	=49
16G\LL	4ee-\ 4eee-\	p
16c\	.	.
16g\	.	.
16c\JJ	.	.
16G\LL	4cc\ 4ccc\)	>
16c\	.	.
16e-\	.	.
16c\JJ	.	.
=50	=50	=50
16G\LL	(4gg'\	.
16B\	.	.
16d\	.	.
16B\JJ	.	.
16G\LL	4gg'\)	.
16c\	.	.
16e-\	.	.
16c\JJ	.	.
=51	=51	=51
16G'\LL	[2gg\	<
(16B\	.	.
16d\	.	.
16B\JJ)	.	.
16G'\LL	.	.
(16c\	.	.
16en\	.	.
16c\JJ)	.	.
=52	=52	=52
16G'\LL	2gg\_	.
(16B\	.	.
16d\	.	.
16B\JJ)	.	.
16G'\LL	.	.
(16A\	.	.
16c\	.	.
16A\JJ)	.	.
=53	=53	=53
16G'\LL	2gg\_	.
(16B\	.	.
16A\	.	.
16G\JJ)	.	.
16F'\LL	.	.
(16A\	.	.
16G\	.	.
16F\JJ)	.	.
=54	=54	=54
16E'\LL	2gg\]	ff
(16G\	.	.
16F\	.	.
16E\JJ)	.	.
16D'\LL	.	.
(16F\	.	.
16E\	.	.
16D\JJ)	.	.
=55	=55	=55
*	*^	*
16CC/ 16C/LL	4r	[2gg\	.
(32D/L	.	.	.
32E/JJJ	.	.	.
32F\LLL	.	.	.
32G\	.	.	.
32A\	.	.	.
32B\JJJ)	.	.	.
*clefG2	*	*	*
16c''/LL	4ggg''/	.	.
(32d/L	.	.	.
32e/JJJ	.	.	.
32f/LLL	.	.	.
32g/	.	.	.
32a/	.	.	.
32b/JJJ)	.	.	.
=56	=56	=56	=56
16cc''/LL	(4.ggg/	2gg\_	.
16b'/	.	.	.
16a'/	.	.	.
16g'/JJ	.	.	.
16f'/LL	.	.	.
16e'/	.	.	.
16d'/	8eee/	.	.
16c'/JJ	.	.	.
*clefF4	*	*	*
=57	=57	=57	=57
16B'\LL	4ddd/)	4gg\]	.
16c'\	.	.	.
16B'\	.	.	.
16A'\JJ	.	.	.
16G'\LL	4gg/	[4gg\	.
16F'\	.	.	.
16E'\	.	.	.
16D'\JJ	.	.	.
=58	=58	=58	=58
16C/LL	(4ccc/	2gg\]	.
16C'/	.	.	.
16BB'/	.	.	.
16AA'/JJ	.	.	.
16GG'/LL	8eee/)	.	ff
16FF'/	.	.	.
16EE'/	8r	.	.
16DD'/JJ	.	.	.
*	*v	*v	*
=59	=59	=59
16CC''/ 16C''/LL	4r	.
(32D/L	.	.
32E/JJJ	.	.
32F\LLL	.	.
32G\	.	.
32A\	.	.
32B\JJJ)	.	.
*clefG2	*	*
16c''/LL	4ggg/	.
(32d/L	.	.
32e/JJJ	.	.
32f/LLL	.	.
32g/	.	.
32a/	.	.
32b/JJJ)	.	.
=60	=60	=60
*	*^	*
16cc''/LL	(4.ggg/	[2gg\	>
16b'/	.	.	.
16a'/	.	.	.
16g'/JJ	.	.	.
16f'/LL	.	.	.
16e'/	.	.	.
16d'/	8eee/	.	.
16c'/JJ	.	.	.
*clefF4	*	*	*
=61	=61	=61	=61
16B'\LL	4ddd/)	4gg\]	.
16c'\	.	.	.
16B'\	.	.	.
16A'\JJ	.	.	.
16G'\LL	4gg/	4gg\	.
16F'\	.	.	.
16E'\	.	.	.
16D'\JJ	.	.	.
=62	=62	=62	=62
*^	*	*	*
8C/L	4.r	8ccc\	8ccc/	.
8CC/J	.	4.r	8r	.
8r	.	.	24c/LL	f
.	.	.	24e/	.
.	.	.	24c/JJ	.
24G/LL	8CC'\ 8C'\	.	8r	.
24E/	.	.	.	.
24G/JJ	.	.	.	.
*	*	*v	*v	*
=63	=63	=63	=63
8r	8r	24c/LL	.
.	.	24f/	.
.	.	24c/JJ	.
24A/LL	8CC'\ 8C'\	8r	.
24F/	.	.	.
24A/JJ	.	.	.
8r	8r	24c/LL	.
.	.	24e/	.
.	.	24c/JJ	.
24G/LL	8CC'\ 8C'\	8r	.
24E/	.	.	.
24G/JJ	.	.	.
=64	=64	=64	=64
8r	8r	24c/LL	.
.	.	24d/	.
.	.	24c/JJ	.
24F/LL	8CC'\ 8C'\	8r	.
24D/	.	.	.
24F/JJ	.	.	.
8r	8r	24c/LL	.
.	.	24d#/	.
.	.	24c/JJ	.
24F#/LL	8CC'\ 8C'\	8r	.
24D#/	.	.	.
24F#/JJ	.	.	.
=65	=65	=65	=65
8r	8r	24c/LL	.
.	.	24e/	.
.	.	24c/JJ	.
24G/LL	8CC'\ 8C'\	8r	.
24E/	.	.	.
24G/JJ	.	.	.
24B/LL	8r	8r	.
24d/	.	.	.
24B/JJ	.	.	.
24F/LL	8CC\ 8C\	8r	.
24D/	.	.	.
24F/JJ	.	.	.
=66	=66	=66	=66
24G/LL	8r	4r	.
24c/	.	.	.
24G/JJ	.	.	.
24E/LL	8CC'\	.	.
24C/	.	.	.
24E/JJ	.	.	.
8r	4r	24e/LL	.
.	.	24g/	.
.	.	24e/JJ	.
8EE'/ 8C'/ 8E'/	.	24c/LL	.
.	.	24G/	.
.	.	24c/JJ	.
*v	*v	*	*
=67	=67	=67
8r	24f/LL	.
.	24a/	.
.	24f/JJ	.
8FF'/ 8C'/ 8F'/	24c/LL	.
.	24A/	.
.	24c/JJ	.
8r	24e/LL	.
.	24g/	.
.	24e/JJ	.
8EE'/ 8C'/ 8E'/	24c/LL	.
.	24G/	.
.	24c/JJ	.
=68	=68	=68
*^	*	*
8r	8r	24d/LL	.
.	.	24f/	.
.	.	24d/JJ	.
24c/LL	8DD'\ 8C'\ 8D'\	8r	.
24F/	.	.	.
24c/JJ	.	.	.
8r	8r	24d#/LL	.
.	.	24f#/	.
.	.	24d#/JJ	.
24c/LL	8DD#'\ 8C'\ 8D#'\	8r	.
24F#/	.	.	.
24c/JJ	.	.	.
=69	=69	=69	=69
8r	8r	24e/LL	.
.	.	24g/	.
.	.	24e/JJ	.
24c/LL	8EE'\ 8C'\ 8E'\	8r	.
24G/	.	.	.
24c/JJ	.	.	.
8r	8r	24dn/LL	.
.	.	24fn/	.
.	.	24d/JJ	.
24B/LL	8DDn'\ 8C'\ 8Dn'\	8r	.
24Fn/	.	.	.
24B/JJ	.	.	.
=70	=70	=70	=70
8r	8r	24c/LL	.
.	.	24e/	.
.	.	24c/JJ	.
24E/LL	8CC'\ 8C'\L	8r	.
24e/	.	.	.
24E/JJ	.	.	.
24r	8EE\	8r	.
24E/LL	.	.	.
24e/JJ	.	.	.
24r	8EE'\J	8r	f
24E/LL	.	.	.
24e/JJ	.	.	.
=71	=71	=71	=71
24r	8AAA'\ 8AA'\L	4r	.
24A/LL	.	.	.
24a/JJ	.	.	.
24r	8BBB'\ 8BB'\	.	.
24B/LL	.	.	.
24b/JJ	.	.	.
4r	8CC'\ 8C'\	24r	.
.	.	24c/LL	.
.	.	24cc/JJ	.
.	8DD'\ 8D'\J	24r	.
.	.	24d/LL	.
.	.	24dd/JJ	.
*v	*v	*	*
=72	=72	=72
4EE/ 4E/	24ee/LL	.
.	24e/	.
.	24ee/JJ	.
.	24e/LL	.
.	24ee/	.
.	24e/JJ	.
8EE'/ 8E'/L	24r	.
.	24e/LL	.
.	24ee/JJ	.
8DD'/ 8D'/J	24r	.
.	24d/LL	.
.	24dd/JJ	.
=73	=73	=73
8CC'/ 8C'/L	24r	.
.	24c/LL	.
.	24cc/JJ	.
8BBB'/ 8BB'/J	24r	.
.	24B/LL	.
.	24b/JJ	.
8CC'/ 8C'/L	24r	.
.	24c/LL	.
.	24cc/JJ	.
8AAA'/ 8AA'/J	24r	.
.	24A/LL	.
.	24a/JJ	.
=74	=74	=74
4EE\	24e\LL	.
.	24E\	.
.	24e\JJ	.
.	24E/LL	.
.	24e/	.
.	24E/JJ	.
8EE'\ 8E'\L	24r	.
.	24e\LL	.
.	24ee\JJ	.
8EE'\ 8E'\J	24r	.
.	24e\LL	.
.	24ee\JJ	.
=75	=75	=75
8AA'\ 8A'\L	24r	.
.	24a\LL	.
.	24aa\JJ	.
8BB'\ 8B'\	24r	.
.	24b\LL	.
.	24bb\JJ	.
8C'\ 8c'\	24r	.
.	24cc\LL	.
.	24ccc\JJ	.
8D'\ 8d'\J	24r	.
.	24dd\LL	.
.	24ddd\JJ	.
=76	=76	=76
4E\ 4e\	24eee\LL	.
.	24ee\	.
.	24eee\JJ	.
.	24ee\LL	.
.	24eee\	.
.	24ee\JJ	.
8E'\ 8e'\L	24r	.
.	24ee\LL	.
.	24eee\JJ	.
8D'\ 8d'\J	24r	.
.	24dd\LL	.
.	24ddd\JJ	.
=77	=77	=77
8C'\ 8c'\L	24r	.
.	24cc\LL	.
.	24ccc\JJ	.
8BB'\ 8B'\J	24r	.
.	24b\LL	.
.	24bb\JJ	.
8C'\ 8c'\L	24r	.
.	24cc\LL	.
.	24ccc\JJ	.
8AA'\ 8A'\J	24r	.
.	24a\LL	.
.	24aa\JJ	.
=78	=78	=78
4EE/ 4E/	24ee\LL	.
.	24e\	.
.	24ee\JJ	.
.	24e\LL	.
.	24ee\	.
.	24e\JJ	.
8FF/ 8AA/ 8F/L	24aa\LL	.
.	24a\	.
.	24aa\JJ	.
8FF/ 8AA/ 8F/J	24a\LL	.
.	24aa\	.
.	24a\JJ	.
=79	=79	=79
8EE/ 8AA/ 8E/L	24aa\LL	.
.	24a\	.
.	24aa\JJ	.
8EE/ 8AA/ 8E/J	24a\LL	.
.	24aa\	.
.	24a\JJ	.
8DD/ 8AA/ 8D/L	24aa\LL	.
.	24a\	.
.	24aa\JJ	.
8DD/ 8AA/ 8D/J	24a\LL	.
.	24aa\	.
.	24a\JJ	.
=80	=80	=80
8CC/ 8AA/ 8C/L	24aa\LL	.
.	24a\	.
.	24aa\JJ	.
8CC/ 8AA/ 8C/J	24a\LL	.
.	24aa\	.
.	24a\JJ	.
8DD/ 8AA/ 8D/L	24ff\LL	.
.	24gg\	.
.	24aa\JJ	.
8DD/ 8AA/ 8D/J	24ff\LL	.
.	24ee\	.
.	24dd\JJ	.
=81	=81	=81
8EE/ 8AA/ 8E/L	24cc\LL	.
.	24dd\	.
.	24ee\JJ	.
8EE/ 8E/J	24cc\LL	.
.	24b\	.
.	24a\JJ	.
8EE/ 8E/L	24b\LL	.
.	24cc\	.
.	24dd\JJ	.
8EE/ 8E/J	24b/LL	.
.	24a/	.
.	24g#/JJ	.
=82	=82	=82
(16AAA/LL	24a/LL	.
.	24A/	.
16AA/	.	.
.	24a/JJ	.
16GG#/	24A/LL	.
.	24a/	.
16AA/JJ)	.	.
.	24A/JJ	.
(16FF/LL	24a/LL	.
.	24A/	.
16AA/	.	.
.	24a/JJ	.
16GG#/	24A/LL	.
.	24a/	.
16AA/JJ)	.	.
.	24A/JJ	.
=83	=83	=83
(16EE/LL	24a/LL	.
.	24A/	.
16AA/	.	.
.	24a/JJ	.
16GG#/	24A/LL	.
.	24a/	.
16AA/JJ)	.	.
.	24A/JJ	.
(16DD/LL	24a/LL	.
.	24A/	.
16AA/	.	.
.	24a/JJ	.
16GG#/	24A/LL	.
.	24a/	.
16AA/JJ)	.	.
.	24A/JJ	.
=84	=84	=84
(16CC/LL	24a/LL	.
.	24A/	.
16AA/	.	.
.	24a/JJ	.
16GG#/	24A/LL	.
.	24a/	.
16AA/JJ)	.	.
.	24A/JJ	.
16DD/LL	24f/LL	.
.	24g/	.
16AA/	.	.
.	24a/JJ	.
16DD/	24f/LL	.
.	24e/	.
16AA/JJ	.	.
.	24d/JJ	.
=85	=85	=85
16EE/LL	24c/LL	.
.	24d/	.
16AA/	.	.
.	24e/JJ	.
16EE/	24c/LL	.
.	24B/	.
16E/JJ	.	.
.	24A/JJ	.
16EE/LL	24B/LL	.
.	24c/	.
16E/	.	.
.	24d/JJ	.
16EE/	24B/LL	.
.	24A/	.
16E/JJ	.	.
.	24G#/JJ	.
=86	=86	=86
*^	*	*
16AA/LL	4r	8A/	.
16E/	.	.	.
16C/	.	8r	.
16E/JJ	.	.	.
16BB/LL	8AA\L	8ee''\ 8eee''\L	ff
16E/	.	.	.
16D/	8AA\J	8ee''\ 8eee''\J	.
16E/JJ	.	.	.
=87	=87	=87	=87
16C/LL	8AA\L	8e''\ 8ee''\L	.
16E/	.	.	.
16C/	8AA\J	8e''\ 8ee''\	.
16E/JJ	.	.	.
16BB/LL	8AA\L	8e''\ 8ee''\	.
16E/	.	.	.
16D/	8AA\J	8g#''\ 8gg#''\J	.
16E/JJ	.	.	.
=88	=88	=88	=88
16C/LL	8AA\	4a\ 4aa\	.
16A/	.	.	.
16E/	8r	.	.
16A/JJ	.	.	.
16D/LL	8AA\	(16bb\LL	p
16G#/	.	16ddd\	.
16E/	8r	16ccc\	.
16G#/JJ	.	16bb\JJ	.
=89	=89	=89	=89
16C/LL	8AA\	16ccc\LL	.
16A/	.	16eee\	.
16E/	8r	16ddd\	.
16A/JJ	.	16ccc\JJ	.
16D/LL	8AA\	16bb\LL	.
16G#/	.	16ddd\	.
16E/	8r	16ccc\	.
16G#/JJ	.	16bb\JJ	.
=90	=90	=90	=90
16C/LL	8AA\	4aa\)	.
16A/	.	.	.
16E/	8r	.	.
16A/JJ	.	.	.
16BB/LL	8AA\L	8ee''\ 8eee''\L	f
16E/	.	.	.
16D/	8AA\J	8ee''\ 8eee''\J	.
16E/JJ	.	.	.
=91	=91	=91	=91
16C/LL	8AA\L	8e''\ 8ee''\L	.
16E/	.	.	.
16C/	8AA\J	8e''\ 8ee''\	.
16E/JJ	.	.	.
16BB/LL	8AA\L	8e''\ 8ee''\	.
16E/	.	.	.
16D/	8AA\J	8g#''\ 8gg#''\J	.
16E/JJ	.	.	.
=92	=92	=92	=92
16C/LL	8AA\	4a\ 4aa\	.
16A/	.	.	.
16E/	8r	.	.
16A/JJ	.	.	.
16D/LL	8AA\	(16bb\LL	p
16G#/	.	16ddd\	.
16E/	8r	16ccc\	.
16G#/JJ	.	16bb\JJ	.
=93	=93	=93	=93
16C/LL	8AA\	16ccc\LL	.
16A/	.	16eee\	.
16E/	8r	16ddd\	.
16A/JJ	.	16ccc\JJ	.
16D/LL	8AA\	16bb\LL	.
16G#/	.	16ddd\	.
16E/	8r	16ccc\	.
16G#/JJ	.	16bb\JJ)	.
=94	=94	=94	=94
16C/LL	8AA\	(16aa\LL	.
16A/	.	16ccc\	.
16E/	8r	16bb\	.
16A/JJ	.	16aa\JJ	.
16D/LL	8AA\	16bb\LL	>
16G#/	.	16ddd\	.
16E/	8r	16ccc\	.
16G#/JJ	.	16bb\JJ	.
=95	=95	=95	=95
16C/LL	8AA\	16ccc\LL	.
16A/	.	16eee\	.
16E/	8r	16ddd\	.
16A/JJ	.	16ccc\JJ	.
16D/LL	8AA\	16bb\LL	.
16G#/	.	16ddd\	.
16E/	8r	16ccc\	.
16G#/JJ	.	16bb\JJ	.
=96	=96	=96	=96
16C/LL	8AA\	16aa\LL	pp
16A/	.	16ccc\	.
16E/	8r	16bb\	.
16A/JJ	.	16aa\JJ	.
16D/LL	8AA\	16bb\LL	.
16G#/	.	16ddd\	.
16E/	8r	16ccc\	.
16G#/JJ	.	16bb\JJ	.
=97	=97	=97	=97
16C/LL	8AA\	16aa\LL	.
16A/	.	16ccc\	.
16E/	8r	16bb\	.
16A/JJ	.	16aa\JJ	.
16D/LL	8AA\	16bb\LL	.
16G#/	.	16ddd\	.
16E/	8r	16ccc\	.
16G#/JJ	.	16bb\JJ	.
*v	*v	*	*
=98	=98	=98
8AA\ 8A\	8aa\)	.
8r	8r	.
4e''\	4ee''\	.
=99	=99	=99
4.e\	(4.ee\	>
8c\	8cc\	.
=100	=100	=100
4B\	4b/	.
4E\	4e/	.
=101	=101	=101
8A\	8a/)	.
8r	8r	.
4r	4r	.
*	*clefF4	*clefF4
=102	=102	=102
8FFF/ 8FF/	8F\	ff
8r	8r	.
*	*clefG2	*clefG2
4c''\	4cc''\ 4ccc''\	.
=103	=103	=103
4.c\	4.cc\ (4.ccc\	>
8A\	8a\ 8aa\	.
=104	=104	=104
4G\	4g\ 4gg\	p
4C\	4c/ 4cc/	.
=105	=105	=105
8F\	8f\ 8ff\)	.
8r	8r	.
4r	4r	.
=106	=106	=106
8GGG/ 8GG/	8G/	ff
8r	8r	.
4f''\	4ff''\ 4fff''\	.
=107	=107	=107
4.f\	4.ff\ (4.fff\	>
8d\	8dd\ 8ddd\	.
=108	=108	=108
4B\	4b\ 4bb\	p
4G\	4g\ 4gg\	.
=109	=109	=109
4.F\	4.f/ 4.ff/)	.
8D\	8d/ (8dd/	.
=110	=110	=110
*^	*	*
4r	4BB\	4B/ 4b/	.
4G/	4GG\	4g/	.
=111	=111	=111	=111
4.F/	4.FF\	4.f/	.
8D/	8DD\	8d/)	.
=112	=112	=112	=112
4BB/ 4B/	4BBB\	2r	.
4r	4r	.	.
=113	=113	=113	=113
4G/	4GGG\ 4GG\	2r	.
4r	4r	.	.
*v	*v	*	*
*	*clefF4	*clefF4
=114	=114	=114
8CC/	16r	.
.	(16E\LL	pp
8r	16G\	.
.	16c\JJ	.
*clefG2	*	*
4gg''\	16e\LL	.
.	16E\	.
.	16G\	.
.	16c\JJ	.
=115	=115	=115
(4.gg\	16e\LL	.
.	16E\	.
.	16G\	.
.	16c\JJ	.
.	16e\LL	.
.	16E\	.
8ee\	16G\	.
.	16c\JJ)	.
=116	=116	=116
4dd\	16r	.
.	16F\LL	.
.	16G\	.
.	16B\JJ	.
4g/	16d\LL	.
.	16F\	.
.	16G\	.
.	16B\JJ	.
=117	=117	=117
4cc\	16r	.
.	16E\LL	.
.	16G\	.
.	16c\JJ	.
8ee\)	16e\LL	.
.	16E\	.
*clefF4	*	*
16r	16G\	.
(16C/	16c\JJ	.
=118	=118	=118
8CC/)	16r	.
.	16E\LL	.
8r	16G\	.
.	16c\JJ	.
*clefG2	*	*
4gg''\	16e\LL	.
.	16E\	.
.	16G\	.
.	16c\JJ	.
=119	=119	=119
(4.gg\	(16e\LL	.
.	16E\	.
.	16G\	.
.	16c\JJ	.
.	16e\LL	.
.	16E\	.
8ee\	16G\	.
.	16c\JJ)	.
=120	=120	=120
4dd\	16r	.
.	16F\LL	.
.	16G\	.
.	16B\JJ	.
4g/	16d\LL	.
.	16F\	.
.	16G\	.
.	16B\JJ	.
=121	=121	=121
8cc\)	8r	.
8r	16E\LL	.
.	16G\JJ	.
*	*clefG2	*clefG2
8.r	16c/LL	.
.	16e/	.
.	16d/	.
*clefF4	*	*
(16GG/	16c/JJ	pp
=122	=122	=122
8GGG/)	16B/LL	.
.	16G/	.
8r	16B/	.
.	16d/JJ	.
*clefG2	*	*
4ff''\	16g/LL	.
.	16G/	.
.	16B/	.
.	16d/JJ	.
=123	=123	=123
(4.ff\	16g/LL	.
.	16G/	.
.	16B/	.
.	16d/JJ	.
.	16g/LL	.
.	16G/	.
8dd\	16B/	.
.	16g/JJ	.
=124	=124	=124
4ee\	16r	.
.	16G/LL	.
.	16c/	.
.	16g/JJ	.
4cc\	16r	.
.	16G/LL	.
.	16e/	.
.	16g/JJ	.
=125	=125	=125
4b\	16r	.
.	16G/LL	.
.	16d/	.
.	16g/JJ	.
8dd\)	16r	.
.	16G/LL	.
*clefF4	*	*
16r	16B/	.
(16GG/	16g/JJ	pp
=126	=126	=126
8GGG/)	16r	.
.	16G/LL	pp
8r	16B/	.
.	16d/JJ	.
*clefG2	*	*
4ff\	16g/LL	.
.	16G/	.
.	16B/	.
.	16d/JJ	.
=127	=127	=127
(4.ff\	16g/LL	.
.	16G/	.
.	16B/	.
.	16d/JJ	.
.	16g/LL	.
.	16G/	.
8dd\	16B/	.
.	16g/JJ	.
=128	=128	=128
4ee-\	16r	.
.	16G/LL	.
.	16c/	.
.	16g/JJ	.
4cc\	16r	.
.	16G/LL	.
.	16e-/	.
.	16g/JJ	.
=129	=129	=129
4b\	16r	.
.	16G/LL	.
.	16d/	.
.	16g/JJ	.
4dd\)	16r	.
.	16G/LL	.
.	16B/	.
.	16g/JJ	.
=130	=130	=130
(4een\	16r	.
.	(16G/LL	.
.	16c/	.
.	16g/JJ)	.
4cc\	16r	.
.	(16G/LL	.
.	16en/	.
.	16g/JJ)	.
=131	=131	=131
4b\	16r	.
.	16G/LL	.
.	16d/	.
.	16g/JJ	.
4dd\)	16r	.
.	16G/LL	.
.	16B/	.
.	16g/JJ	.
=132	=132	=132
(4ee-\	16r	.
.	(16G/LL	.
.	16c/	.
.	16g/JJ)	.
4cc\)	16r	.
.	(16G/LL	.
.	16c/	.
.	16e-/JJ)	.
=133	=133	=133
(4gg'\	16r	.
.	(16G/LL	.
.	16B/	.
.	16d/JJ)	.
4gg'\)	16r	.
.	(16G/LL	.
.	16c/	.
.	16e-/JJ)	.
=134	=134	=134
(4gg'\	16r	.
.	(16G/LL	.
.	16B/	.
.	16d/JJ)	.
4gg'\)	16r	.
.	(16G/LL	.
.	16c/	.
.	16e-/JJ)	.
=135	=135	=135
(4gg'\	16r	.
.	(16G/LL	.
.	16B/	.
.	16d/JJ)	.
4gg'\)	16r	.
.	(16G/LL	.
.	16A/	.
.	16c/JJ)	.
=136	=136	=136
4gg\	16r	.
.	(16G/LL	pp
.	16B/	.
.	16d/JJ	.
4r	16g/LL	.
.	16b/	.
.	16a/	.
.	16f#/JJ	.
=137	=137	=137
2r	16g/LL	.
.	16B/	.
.	16d/	.
.	16g/JJ	.
.	16b\LL	.
.	16dd\	.
.	16cc\	.
.	16a\JJ)	.
=138	=138	=138
2r	16b\LL	.
.	16g\	.
.	16b\	.
.	16dd\JJ	.
.	16gg\LL	.
.	16bb\	.
.	16aa\	.
.	16ff#\JJ	.
=139	=139	=139
2r	16gg\LL	.
.	16bb\	.
.	16aa\	.
.	16ccc\JJ	.
.	16bb\LL	.
.	16ddd\	.
.	16ccc#\	.
.	16eee\JJ	.
=140	=140	=140
2r	16ddd\LL	.
.	16fff\	.
.	16eee\	.
.	16ggg\JJ	.
.	16fff\LL	.
.	16aaa\	.
.	16ggg\	.
.	16eee\JJ	.
=141	=141	=141
2r	16ddd\LL	.
.	16fff\	.
.	16eee\	.
.	16ggg\JJ	.
.	16fff\LL	.
.	16aaa\	.
.	16ggg\	.
.	16eee\JJ	.
=142	=142	=142
2r	16ddd\LL	.
.	16fff\	.
.	16eee\	.
.	16cccn\JJ	.
.	16bb\LL	.
.	16ddd\	.
.	16ccc\	.
.	16aa\JJ	.
=143	=143	=143
2r	16gg\LL	.
.	16bb\	.
.	16aa\	.
.	16ff\JJ	.
.	16ee\LL	.
.	16gg\	.
.	16ff\	.
.	16dd\JJ	.
*clefF4	*	*
=144	=144	=144
16CC'/	8cc\	pp
16GG/LL	.	.
16C/	8r	.
16E/JJ	.	.
16G\LL	4gg''\ 4ggg''\	.
16C\	.	.
16E\	.	.
16G\JJ	.	.
=145	=145	=145
16c\LL	4.gg\ (4.ggg\	.
16E\	.	.
16G\	.	.
16c\JJ	.	.
16e\LL	.	.
16G'\	.	.
16c\	8ee\ 8eee\	.
16e\JJ	.	.
=146	=146	=146
16f\LL	4dd\ 4ddd\	.
16e\	.	.
16d\	.	.
16c\JJ	.	.
16B\LL	4g\ 4gg\	.
16A\	.	.
16G\	.	.
16F\JJ	.	.
=147	=147	=147
16E\LL	4cc\ 4ccc\	.
16G\	.	.
16C\	.	.
16E\JJ	.	.
16GG/LL	8ee\ 8eee\)	.
16C/	.	.
16EE/	8r	.
16GG/JJ	.	.
=148	=148	=148
16CC'/	4r	.
16GG/LL	.	.
16C/	.	.
16E/JJ	.	.
16G\LL	4gg''\ 4ggg''\	.
16C\	.	.
16E\	.	.
16G\JJ	.	.
=149	=149	=149
16c\LL	4.gg\ (4.ggg\	.
16E\	.	.
16G\	.	.
16c\JJ	.	.
16e\LL	.	.
16G\	.	.
16c\	8ee\ 8eee\	.
16e\JJ	.	.
=150	=150	=150
16f\LL	4dd\ 4ddd\	.
16e\	.	.
16d\	.	.
16c\JJ	.	.
16B\LL	4g\ 4gg\	.
16G\	.	.
16A\	.	.
16B\JJ	.	.
=151	=151	=151
16c'\LL	8cc\ 8ccc\)	.
16B'\	.	.
16A'\	8r	.
16G'\JJ	.	.
16F'\LL	4r	.
16E'\	.	.
16D'\	.	.
16C'\JJ	.	.
=152	=152	=152
16GG'\LL	4r	.
16BB\	.	.
16D\	.	.
16G\JJ	.	.
16BB\LL	4ff''\ 4fff''\	.
16D\	.	.
16G\	.	.
16B\JJ	.	.
=153	=153	=153
16D'\LL	4.ff\ (4.fff\	.
16G\	.	.
16B\	.	.
16d\JJ	.	.
16G\LL	.	.
16B\	.	.
16d\	8dd\ 8ddd\	.
16g\JJ	.	.
=154	=154	=154
16G\LL	4ee\ 4eee\	.
16c\	.	.
16g\	.	.
16c\JJ	.	.
16G\LL	4cc\ 4ccc\	.
16e\	.	.
16g\	.	.
16e\JJ	.	.
=155	=155	=155
16G\LL	4b\ 4bb\	.
16d\	.	.
16g\	.	.
16d\JJ	.	.
16G\LL	8dd\ 8ddd\)	.
16B\	.	.
16g\	8r	.
16B\JJ	.	.
=156	=156	=156
16GG\LL	4r	.
16BB\	.	.
16D\	.	.
16G\JJ	.	.
16BB\LL	4ff''\ 4fff''\	.
16D\	.	.
16G\	.	.
16B\JJ	.	.
=157	=157	=157
16D\LL	4.ff\ (4.fff\	.
16G\	.	.
16B\	.	.
16d\JJ	.	.
16G\LL	.	.
16B\	.	.
16d\	8dd\ 8ddd\	.
16g\JJ	.	.
=158	=158	=158
16G\LL	4ee-\ 4eee-\	.
16c\	.	.
16g\	.	.
16c\JJ	.	.
16G\LL	4cc\ 4ccc\	.
16e-\	.	.
16g\	.	.
16e-\JJ	.	.
=159	=159	=159
16G\LL	4b\ 4bb\	.
16d\	.	.
16g\	.	.
16d\JJ	.	.
16G\LL	4dd\ 4ddd\)	.
16B\	.	.
16g\	.	.
16B\JJ	.	.
=160	=160	=160
16G\LL	4een\ (4eeen\	.
16c\	.	.
16g\	.	.
16c\JJ	.	.
16G\LL	4cc\ 4ccc\	.
16en\	.	.
16g\	.	.
16e\JJ	.	.
=161	=161	=161
16G\LL	4b\ 4bb\	.
16d\	.	.
16g\	.	.
16d\JJ	.	.
16G\LL	4dd\ 4ddd\	.
16B\	.	.
16g\	.	.
16B\JJ	.	.
=162	=162	=162
16G\LL	4ee-\ 4eee-\	p
16c\	.	.
16g\	.	.
16c\JJ	.	.
16G\LL	4cc\ 4ccc\)	.
16c\	.	.
16e-\	.	.
16c\JJ	.	.
=163	=163	=163
16G\LL	(4gg'\	.
16B\	.	.
16d\	.	.
16B\JJ	.	.
16G\LL	4gg'\)	.
16c\	.	.
16e-\	.	.
16c\JJ	.	.
=164	=164	=164
.	aaq/	.
16G'\LL	[2gg\	.
(16B\	.	.
16d\	.	.
16B\JJ)	.	.
16G'\LL	.	.
(16c\	.	.
16en\	.	.
16c\JJ)	.	.
=165	=165	=165
16G'\LL	2gg\_	.
(16B\	.	.
16d\	.	.
16B\JJ)	.	.
16G'\LL	.	.
(16A\	.	.
16c\	.	.
16A\JJ)	.	.
=166	=166	=166
16G'\LL	2gg\_	.
(16B\	.	.
16A\	.	.
16G\JJ)	.	.
16F'\LL	.	.
(16A\	.	.
16G\	.	.
16F\JJ)	.	.
=167	=167	=167
16E'\LL	2gg\]	.
(16G\	.	.
16F\	.	.
16E\JJ)	.	.
16D'\LL	.	.
(16F\	.	.
16E\	.	.
16D\JJ)	.	.
=168	=168	=168
*	*^	*
16CC''/ 16C''/LL	4r	[2gg\	ff
(32D/L	.	.	.
32E/JJJ	.	.	.
32F\LLL	.	.	.
32G\	.	.	.
32A'\	.	.	.
32B\JJJ)	.	.	.
*clefG2	*	*	*
16c''/LL	4ggg''/	.	.
(32d/L	.	.	.
32e/JJJ	.	.	.
32f/LLL	.	.	.
32g/	.	.	.
32a/	.	.	.
32b/JJJ)	.	.	.
=169	=169	=169	=169
16cc'/LL	(4.ggg/	2gg\_	>
16b'/	.	.	.
16a'/	.	.	.
16g'/JJ	.	.	.
16f'/LL	.	.	.
16e'/	.	.	.
16d'/	8eee/	.	.
16c'/JJ	.	.	.
*clefF4	*	*	*
=170	=170	=170	=170
16B'\LL	4ddd/)	4gg\]	.
16c'\	.	.	.
16B'\	.	.	.
16A'\JJ	.	.	.
16G'\LL	4gg/	[4gg\	.
16F'\	.	.	.
16E'\	.	.	.
16D'\JJ	.	.	.
=171	=171	=171	=171
16C/LL	(4ccc/	2gg\]	.
16C'/	.	.	.
16BB'/	.	.	.
16AA'/JJ	.	.	.
16GG'/LL	8eee/)	.	.
16FF'/	.	.	.
16EE'/	8r	.	.
16DD'/JJ	.	.	.
=172	=172	=172	=172
16CC''/ 16C''/LL	4r	[2gg\	ff
(32D/L	.	.	.
32E/JJJ	.	.	.
32F\LLL	.	.	.
32G\	.	.	.
32A\	.	.	.
32B\JJJ)	.	.	.
*clefG2	*	*	*
16c''/LL	4ggg''/	.	.
(32d/L	.	.	.
32e/JJJ	.	.	.
32f/LLL	.	.	.
32g/	.	.	.
32a/	.	.	.
32b/JJJ)	.	.	.
=173	=173	=173	=173
16cc'/LL	(4.ggg/	2gg\_	.
16b'/	.	.	.
16a'/	.	.	.
16g'/JJ	.	.	.
16f'/LL	.	.	.
16e'/	.	.	.
16d'/	8eee/	.	.
16c'/JJ	.	.	.
*clefF4	*	*	*
=174	=174	=174	=174
16B'\LL	4ddd/)	4gg\]	.
16c'\	.	.	.
16B'\	.	.	.
16A'\JJ	.	.	.
16G\LL	4gg/	4gg\	.
16F'\	.	.	.
16E'\	.	.	.
16D'\JJ	.	.	.
*	*v	*v	*
=175	=175	=175
8C/	8ccc\	f
8GGG'/ 8GG'/L	16r	.
.	16G/LL	.
8EE-'/ 8E-'/	16r	.
.	16e-/	.
8DD'/ 8D'/J	16r	.
.	16d/JJ	.
=176	=176	=176
*k[b-e-a-]	*k[b-e-a-]	*k[b-e-a-]
*c:	*c:	*c:
8CC'/ 8C'/L	16r	.
.	16c/LL	.
8GGG'/ 8GG'/	16r	.
.	16G/	.
8AAAn'/ 8AAn'/	16r	.
.	16An/	.
8BBBn'/ 8BBn'/J	16r	.
.	16Bn/JJ	.
=177	=177	=177
8CC'/ 8C'/L	16r	.
.	16c/LL	.
8CC'/ 8C'/	16r	.
.	16c/	.
8AA-'/ 8A-'/	16r	.
.	16a-/	.
8GG'/ 8G'/J	16r	.
.	16g/JJ	.
=178	=178	=178
8FF'/ 8F'/L	16r	.
.	16f/LL	.
8CC'/ 8C'/	16r	.
.	16c/	.
8DD'/ 8D'/	16r	.
.	16d/	.
8EEn'/ 8En'/J	16r	.
.	16en/JJ	.
=179	=179	=179
8FF'/ 8F'/L	16r	.
.	16f/LL	.
8FF'/ 8F'/J	16r	.
.	16f/JJ	.
8D-'\ 8d-'\L	16r	.
.	16dd-\LL	.
8C'\ 8c'\J	16r	.
.	16cc\JJ	.
=180	=180	=180
8BB-'\ 8B-'\L	16r	.
.	16b-/LL	.
8AA-'\ 8A-'\	16r	.
.	16a-/	.
8GG'\ 8G'\	16r	.
.	16g/	.
8FF'\ 8F'\J	16r	.
.	16f/JJ	.
=181	=181	=181
8EE-'\ 8E-'\L	16r	.
.	16e-/LL	.
8D-'\	16r	.
.	16e-/JJ	.
8C'\	16r	.
.	16E-/ 16G/ 16e-/LL	.
8BB-'\J	16r	.
.	16F/ 16A-/ 16e-/JJ	.
=182	=182	=182
8AA-'\L	16r	.
.	16G/ 16B-/ 16e-/LL	.
8GG'\	16r	.
.	16A-/ 16c/ 16e-/JJ	.
8FF'\	16r	.
.	16B-/ 16d-/ 16e-/LL	.
8EE-'\J	16r	.
.	16G/ 16B-/ 16e-/JJ	.
=183	=183	=183
8AA-/	8c/	.
24BBBn/LL	8G'/ 8g'/L	.
24AAAn/	.	.
24BBB/JJ	.	.
24CC/LL	8e-'/ 8ee-'/	.
24EE-/	.	.
24FF/JJ	.	.
24GG/LL	8d'/ 8dd'/J	.
24AAn/	.	.
24BBn/JJ	.	.
=184	=184	=184
24C\LL	8c'/ 8cc'/L	.
24D\	.	.
24E-\JJ	.	.
24F\LL	8G'/ 8g'/	.
24E-\	.	.
24D\JJ	.	.
24C\LL	8An'/ 8an'/	.
24D\	.	.
24E-\JJ	.	.
24F\LL	8Bn'/ 8bn'/J	.
24E-\	.	.
24D\JJ	.	.
=185	=185	=185
8C/	8c'/ 8cc'/L	.
24EEn/LL	8c'/ 8cc'/J	.
24DD/	.	.
24EE/JJ	.	.
24FF/LL	8a-'\ 8aa-'\L	.
24AA-/	.	.
24BB-/JJ	.	.
24C/LL	8g'\ 8gg'\J	.
24D/	.	.
24En/JJ	.	.
=186	=186	=186
24F\LL	8f'/ 8ff'/L	.
24G\	.	.
24A-\JJ	.	.
24B-\LL	8c'/ 8cc'/	.
24A-\	.	.
24G\JJ	.	.
24F\LL	8d'/ 8dd'/	.
24G\	.	.
24A-\JJ	.	.
24B-\LL	8en'/ 8een'/J	.
24A-\	.	.
24G\JJ	.	.
=187	=187	=187
8F\	8f'\ 8ff'\L	.
24AAn/LL	8f'\ 8ff'\J	.
24GG/	.	.
24AA/JJ	.	.
24BB-/LL	8dd-'\ 8ddd-'\L	.
24C/	.	.
24BB-/JJ	.	.
24AA/LL	8cc'\ 8ccc'\J	.
24GG/	.	.
24AA/JJ	.	.
=188	=188	=188
24BB-/LL	8b-'\ 8bb-'\L	.
24AA-/	.	.
24BB-/JJ	.	.
24C/LL	8a-'\ 8aa-'\	.
24BBn/	.	.
24C/JJ	.	.
24D-/LL	8g'\ 8gg'\	.
24C/	.	.
24D-/JJ	.	.
24Dn/LL	8f'\ 8ff'\J	.
24C/	.	.
24D/JJ	.	.
=189	=189	=189
24E-\LL	8e-'/ 8ee-'/L	.
24F\	.	.
24E-\JJ	.	.
24D-\LL	8e-'/ 8ee-'/	.
24E-\	.	.
24D-\JJ	.	.
24C/LL	8e-'/ 8g'/ 8ee-'/	.
24D-/	.	.
24C/JJ	.	.
24BB-/LL	8f'/ 8a-'/ 8ee-'/J	.
24C/	.	.
24BB-/JJ	.	.
=190	=190	=190
24AA-/LL	8g'\ 8b-'\ 8ee-'\L	.
24BB-/	.	.
24AA-/JJ	.	.
24GG/LL	8a-'\ 8cc'\ 8ee-'\	.
24AA-/	.	.
24GG/JJ	.	.
24FF/LL	8b-'\ 8dd-'\ 8ee-'\	.
24GG/	.	.
24FF/JJ	.	.
24EE-/LL	8g'\ 8b-'\ 8ee-'\J	.
24FF/	.	.
24EE-/JJ	.	.
=191	=191	=191
8AA-'\	8a-'/ 8cc'/	.
8EE-'\ 8E-'\L	24g/LL	.
.	24f/	.
.	24g/JJ	.
8C'\ 8c'\	24a-\LL	.
.	24cc\	.
.	24dd-\JJ	.
8BB-'\ 8B-'\J	24ee-\LL	.
.	24ff\	.
.	24gg\JJ	.
=192	=192	=192
8AA-'/ 8A-'/L	24aa-\LL	.
.	24bb-\	.
.	24ccc\JJ	.
8EE-'/ 8E-'/	24ddd-\LL	.
.	24ccc\	.
.	24bb-\JJ	.
8FF'/ 8F'/	24ddd-\LL	.
.	24ccc\	.
.	24bb-\JJ	.
8GG'/ 8G'/J	24ddd-\LL	.
.	24ccc\	.
.	24bb-\JJ	.
=193	=193	=193
8AA-'\ 8A-'\	8aa-'\	.
8CC'\ 8C'\L	24en/LL	.
.	24d/	.
.	24e/JJ	.
8AA-'\ 8A-'\	24f/LL	.
.	24a-/	.
.	24b-/JJ	.
8GG'\ 8G'\J	24cc\LL	.
.	24dd\	.
.	24een\JJ	.
=194	=194	=194
8FF'/ 8F'/L	24ff\LL	.
.	24gg\	.
.	24aa-\JJ	.
8CC'/ 8C'/	24bb-\LL	.
.	24aa-\	.
.	24gg\JJ	.
8DD'/ 8D'/	24bb-\LL	.
.	24aa-\	.
.	24gg\JJ	.
8EEn'/ 8En'/J	24bb-\LL	.
.	24aa-\	.
.	24gg\JJ	.
=195	=195	=195
8FF'\ 8F'\L	24aa-\LL	.
.	24bb-\	.
.	24aa-\JJ	.
8F'\ 8f'\	24gg\LL	.
.	24aa-\	.
.	24gg\JJ	.
8A-'\ 8a-'\	24ff\LL	.
.	24gg\	.
.	24ff'\JJ	.
8G'\ 8g'\J	24ee-\LL	.
.	24ff\	.
.	24ee-\JJ	.
=196	=196	=196
8F'\ 8f'\L	24dd\LL	.
.	24ee-\	.
.	24dd\JJ	.
8E-'\ 8e-'\	24ee-\LL	.
.	24ff\	.
.	24ee-\JJ	.
8D'\ 8d'\	24ff\LL	.
.	24gg\	.
.	24ff\JJ	.
8C'\ 8c'\J	24ff#\LL	.
.	24gg\	.
.	24ff#\JJ	.
=197	=197	=197
4BBn\ 4Bn\	24gg\LL	.
.	24aa-\	.
.	24gg\JJ	.
.	24ff#\LL	.
.	24gg\	.
.	24ff#\JJ	.
8GG'\ 8G'\L	24gg\LL	.
.	24aa-\	.
.	24gg\JJ	.
8GG'\ 8G'\J	24ff#\LL	.
.	24gg\	.
.	24ff#\JJ	.
=198	=198	=198
8GG'\ 8G'\L	24gg\LL	.
.	24aa-\	.
.	24gg\JJ	.
8GG'\ 8G'\	24ffn\LL	.
.	24gg\	.
.	24ff\JJ	.
8GG'\ 8G'\	24ee-\LL	.
.	24ff\	.
.	24ee-\JJ	.
8GG'\ 8G'\J	24dd\LL	.
.	24ee-\	.
.	24dd\JJ	.
=199	=199	=199
8C'\ 8c'\	8cc'\	.
24GG/LL	8e-'\ 8ee-'\L	.
24FF/	.	.
24GG/JJ	.	.
24AA-/LL	8cc'\ 8ccc'\	.
24C/	.	.
24D-/JJ	.	.
24E-\LL	8b-'\ 8bb-'\J	.
24F\	.	.
24G\JJ	.	.
=200	=200	=200
24A-\LL	8a-\ 8aa-\L	.
24B-\	.	.
24c\JJ	.	.
24d-\LL	8e-'\ 8ee-'\	.
24c\	.	.
24B-\JJ	.	.
24A-\LL	8f'\ 8ff'\	.
24B-\	.	.
24c\JJ	.	.
24d-\LL	8g'\ 8gg'\J	.
24c\	.	.
24B-\JJ	.	.
=201	=201	=201
8A-'\	8a-'\ 8aa-'\	.
24EEn/LL	8c'\ 8cc'\L	.
24DD/	.	.
24EE/JJ	.	.
24FF/LL	8a-'\ 8aa-'\	.
24AA-/	.	.
24BB-/JJ	.	.
24C/LL	8g'\ 8gg'\J	.
24D/	.	.
24En/JJ	.	.
=202	=202	=202
24F\LL	8f'/ 8ff'/L	.
24G\	.	.
24A-\JJ	.	.
24B-\LL	8c'/ 8cc'/	.
24A-\	.	.
24G\JJ	.	.
24F\LL	8d'/ 8dd'/	.
24G\	.	.
24A-\JJ	.	.
24B-\LL	8en'/ 8een'/J	.
24A-\	.	.
24G\JJ	.	.
=203	=203	=203
8F'\	8f'\ 8ff'\	.
24CC/LL	8ff'\ 8fff'\L	.
24DD/	.	.
24EEn/JJ	.	.
24FF/LL	8aa-'\ 8aaa-'\	.
24EE/	.	.
24FF/JJ	.	.
24GG/LL	8gg'\ 8ggg'\J	.
24FF/	.	.
24GG/JJ	.	.
=204	=204	=204
24AA-/LL	8ff'\ 8fff'\L	.
24BB-/	.	.
24AA-/JJ	.	.
24GG/LL	8ee-'\ 8eee-'\	.
24AA-/	.	.
24GG/JJ	.	.
24FF/LL	8dd'\ 8ddd'\	.
24GG/	.	.
24FF/JJ	.	.
24FF#/LL	8cc'\ 8ccc'\J	.
24GG/	.	.
24FF#/JJ	.	.
=205	=205	=205
24GG/LL	4bn\ 4bbn\	.
24AA-/	.	.
24GG/JJ	.	.
24FF#/LL	.	.
24GG/	.	.
24FF#/JJ	.	.
24GG/LL	8g\ 8gg\L	.
24AA-/	.	.
24GG/JJ	.	.
24FF#/LL	8g\ 8gg\J	.
24GG/	.	.
24FF#/JJ	.	.
=206	=206	=206
24GG/LL	8g'\ 8gg'\L	.
24AA-/	.	.
24GG/JJ	.	.
24FFn/LL	8g'\ 8gg'\	.
24GG/	.	.
24FF/JJ	.	.
24EE-/LL	8g'\ 8gg'\	.
24FF/	.	.
24EE-/JJ	.	.
24DD/LL	8g'\ 8gg'\J	.
24EE-/	.	.
24DD/JJ	.	.
=207	=207	=207
8CC'/	8cc\ 8ccc\	.
8FF'/ 8F'/L	24cc\LL	.
.	24dd\	.
.	24een\JJ	.
8AA-'/ 8A-'/	24ff\LL	.
.	24ee\	.
.	24ff\JJ	.
8GG'/ 8G'/J	24gg\LL	.
.	24ff\	.
.	24gg\JJ	.
=208	=208	=208
8FF'/ 8F'/L	24aa-\LL	.
.	24bb-\	.
.	24aa-\JJ	.
8EE-'/ 8E-'/	24gg\LL	.
.	24aa-\	.
.	24gg\JJ	.
8DD'/ 8D'/	24ff\LL	.
.	24gg\	.
.	24ff\JJ	.
8CC'/ 8C'/J	24ff#\LL	.
.	24gg\	.
.	24ff#\JJ	.
=209	=209	=209
4BBBn/ 4BBn/	24gg\LL	.
.	24aa-\	.
.	24gg\JJ	.
.	24ff#\LL	.
.	24gg\	.
.	24ff#\JJ	.
8GGG'/ 8GG'/L	24gg\LL	.
.	24aa-\	.
.	24gg\JJ	.
8GGG'/ 8GG'/J	24ff#\LL	.
.	24gg\	.
.	24ff#\JJ	.
=210	=210	=210
8GGG'/ 8GG'/L	24gg\LL	.
.	24aa-\	.
.	24gg\JJ	.
8GGG'/ 8GG'/	24ffn\LL	.
.	24gg\	.
.	24ff\JJ	.
8GGG'/ 8GG'/	24ee-\LL	.
.	24ff\	.
.	24ee-\JJ	.
8GGG'/ 8GG'/J	24dd\LL	.
.	24ee-\	.
.	24dd\JJ	.
=211	=211	=211
8CC'/ 8C'/	24cc\LL	.
.	24bn\	.
.	24cc\JJ	.
8r	24dd\LL	.
.	24cc\	.
.	24dd\JJ	.
8GG'/ 8G'/L	24ee-\LL	.
.	24dd\	.
.	24ee-\JJ	.
8GG'/ 8G'/J	24ff\LL	.
.	24ee-\	.
.	24ff\JJ	.
=212	=212	=212
8GG'/ 8G'/L	24gg\LL	.
.	24aa-\	.
.	24gg\JJ	.
8GG'/ 8G'/	24ff\LL	.
.	24gg\	.
.	24ff\JJ	.
8GG'/ 8G'/	24ee-\LL	.
.	24ff\	.
.	24ee-\JJ	.
8GG'/ 8G'/J	24dd\LL	.
.	24ee-\	.
.	24dd\JJ	.
=213	=213	=213
8C'\ 8c'\	24cc\LL	.
.	24bn\	.
.	24cc\JJ	.
8r	24dd\LL	.
.	24cc\	.
.	24dd\JJ	.
8GGG'/ 8GG'/L	24ee-\LL	ff
.	24dd\	.
.	24ee-\JJ	.
8GGG'/ 8GG'/J	24ff\LL	.
.	24ee-\	.
.	24ff\JJ	.
=214	=214	=214
8GGG'/ 8GG'/L	24gg\LL	.
.	24aa-\	.
.	24gg\JJ	.
8GGG'/ 8GG'/	24ff\LL	.
.	24gg\	.
.	24ff\JJ	.
8GGG'/ 8GG'/	24ee-\LL	.
.	24ff\	.
.	24ee-\JJ	.
8GGG'/ 8GG'/J	24dd\LL	.
.	24ee-\	.
.	24dd\JJ	.
=215	=215	=215
8CC'/ 8C'/	24cc\LL	.
.	24bn\	.
.	24cc\JJ	.
8r	24dd\LL	.
.	24ee-\	.
.	24ff\JJ	.
8GGG'/ 8GG'/	24gg\LL	.
.	24aa-\	.
.	24gg\JJ	.
8r	24ff\LL	.
.	24ee-\	.
.	24dd\JJ	.
=216	=216	=216
8CC'/ 8C'/	24cc\LL	.
.	24bn\	.
.	24cc\JJ	.
8r	24dd\LL	.
.	24ee-\	.
.	24ff\JJ	.
8GGG'/ 8GG'/	24gg\LL	.
.	24aa-\	.
.	24gg\JJ	.
8r	24ff\LL	.
.	24ee-\	.
.	24dd\JJ	.
=217	=217	=217
8CC'/ 8C'/	8c'/ 8cc'/	ff
8r	8r	.
8CC'/ 8C'/	8c'/ 8cc'/	.
8r	8r	.
=218	=218	=218
8CC'/ 8C'/	8c'/ 8cc'/	>
8r	8r	.
4r	4r	.
=219	=219	=219
4CC/ 4C/	4c/ 4cc/	.
4r	4r	.
=220	=220	=220
4CC/ 4C/	4c/ 4cc/	p
4r	4r	.
=221	=221	=221
8AAA-/ 8AA-/	8A-/	ff
8r	8r	.
4AA-''\ 4C''\ 4E-''\ 4A-''\	4e-''/ 4a-''/ 4cc''/ 4ee-''/	.
*clefG2	*	*
=222	=222	=222
4.A-/ 4.c/ 4.e-/ 4.a-/	4.ee-\ 4.aa-\ 4.ccc\ 4.eee-\	>
8A-/ 8c/ 8e-/ 8a-/	8ee-\ 8ccc\	.
=223	=223	=223
4A-/ 4B-/ 4d-/ 4e-/ 4g/	4dd-'\ (4bb-'\	p
4A-/ 4B-/ 4d-/ 4e-/ 4g/	4dd-'\ 4ee-'\)	.
=224	=224	=224
4A-/ 4c/ 4e-/ 4a-/	4cc\ 4aa-\	.
4r	4r	.
*clefF4	*clefF4	*clefF4
=225	=225	=225
8FFF/ 8FF/	8F\	ff
8r	8r	.
*	*clefG2	*clefG2
4FF''/ 4AA-''/ 4C''/ 4F''/	4c''/ 4f''/ 4a-''/ 4cc''/	.
=226	=226	=226
4.F\ 4.A-\ 4.c\ 4.f\	4.cc\ 4.ff\ 4.aa-\ 4.ccc\	>
8F\ 8A-\ 8c\ 8f\	8cc\	.
=227	=227	=227
4F\ 4G\ 4B-\ 4c\ 4en\	4b-'\ (4gg'\	p
4F\ 4G\ 4B-\ 4c\ 4e\	4b-'\ 4cc'\)	.
=228	=228	=228
4F\ 4A-\ 4c\ 4f\	4a-\ 4ff\	.
4r	4r	.
=229	=229	=229
8DD-/ 8D-/	8d-/	ff
8r	8r	.
4D-''\ 4F''\ 4A-''\ 4d-''\	4a-''\ 4dd-''\ 4ff''\ 4aa-''\	.
*clefG2	*	*
=230	=230	=230
4.d-/ 4.f/ 4.a-/ 4.dd-/	4.aa-\ 4.ddd-\ 4.fff\ 4.aaa-\	>
8d-/ 8f/ 8a-/ 8dd-/	8aa-\ 8fff\	.
=231	=231	=231
4d-/ 4e-/ 4g-/ 4a-/ 4cc/	4gg-'\ (4eee-'\	p
4d-/ 4e-/ 4g-/ 4a-/ 4cc/	4gg-'\ 4aa-'\)	.
=232	=232	=232
4.d-/ 4.f/ 4.a-/ 4.dd-/	4.ff\ 4.ddd-\	.
*clefF4	*	*
8D-\ 8A-\ 8d-\	8a-\ 8ff\	.
=233	=233	=233
4D-\ 4A-\ 4c\	4g-'\ (4ee-'\	>
4D-\ 4A-\ 4c\	4g-/ 4a-/)	.
=234	=234	=234
4.D-\ 4.A-\ 4.d-\	4.f/ 4.dd-/	.
*	*clefF4	*clefF4
8DD-/ 8AA-/ 8D-/	8A-\ 8f\	.
=235	=235	=235
4DD-/ 4AA-/ 4C/	4G-'\ (4e-'\	pp
4DD-/ 4AA-/ 4C/	4G-'\ 4A-'\)	.
=236	=236	=236
4DD-/ 4AA-/ 4D-/	4F'\ (4d-'\	.
4DD-/ 4AA-/ 4D-/	4F'\ 4A-'\)	.
=237	=237	=237
4DD-/ 4AA-/ 4C/	4G-'\ 4e-'\	.
4DD-/ 4AA-/ 4C/	4G-'\ 4A-'\	.
=238	=238	=238
4DD-/ 4AA-/ 4C/	4G-'\ (4e-'\	.
4DD-/ 4AA-/ 4C/	4G-'\ 4A-'\)	.
=239	=239	=239
8DD-/ 8AA-/ 8D-/	8F\ 8d-\	.
*	*clefG2	*clefG2
8r	4A-/ 4d-/ 4f/	.
4D-\	.	.
.	[8A-/ [8d-/ [8f/	.
=240	=240	=240
4D-\	8A-/] 8d-/] 8f/]	.
.	4A-/ 4d-/ 4f/	.
4D-\	.	.
.	[8A-/ 8d-/ (8f/	.
=241	=241	=241
4AA-/	8A-/] 8d-/ 8e-/)	<
.	4A-/ 4c/ 4e-/	.
4AA-/	.	.
.	[8A-/ 8c/ [8e-/	.
=242	=242	=242
4AA-/	8A-/] 8c-/ 8e-/]	.
.	4c-/ (4e-/	.
4AA-/	.	.
.	8A-/ 8c-/ 8dn/ 8f/	.
=243	=243	=243
4EE-/	8G-/ 8B-/ 8e-/ 8g-/)	.
.	4B-/ 4e-/ 4g-/	p
4E-'\	.	.
.	[8B-/ [8e-/ [8g-/	.
=244	=244	=244
4E-'\	8B-/] 8e-/] 8g-/]	.
.	4B-/ 4e-/ 4g-/	.
4E-'\	.	.
.	[8B-/ [8e-/ (8g-/	.
=245	=245	=245
4BB-'/	8B-/] 8e-/] 8f/)	.
.	4B-/ 4f/	.
4BB-'/	.	.
.	[8B-/ (8d/ [8f/	.
=246	=246	=246
4BB-'/	8B-/] 8d-/) 8f/]	.
.	4B-/ 4d-/ (4f/	.
4BB-'/	.	.
.	8B-/ 8d-/ 8en/ 8gn/	.
=247	=247	=247
4FF'/	8A-/ 8c/ 8f/ 8a-/)	.
.	4c/ 4f/ 4a-/	p
4F'\	.	.
.	[8c/ [8f/ [8a-/	.
=248	=248	=248
4F'\	8c/] 8f/] 8a-/]	.
.	4c/ 4f/ 4a-/	.
4F'\	.	.
.	[8c/ [8f/ (8a-/	.
=249	=249	=249
4C'\	8c/] 8f/] 8g/)	.
.	4c/ 4en/ 4g/	.
4C'\	.	.
.	[8c/ 8e/ (8g/	.
=250	=250	=250
4F'\	8c/] 8f/ 8a-/)	.
.	4c/ 4f/ 4a-/	.
4F'\	.	.
.	8c/ 8f/ 8a-/	.
=251	=251	=251
8CC/	16r	.
.	16c/LL	pp
8r	16en/	.
.	16g/JJ	.
4En'\ 4G'\	16bn\LL	.
.	16cc\	.
.	16een\	.
.	16gg\JJ	.
=252	=252	=252
2En\ 2G\	16bbn\LL	.
.	16ccc\	.
.	16gg\	.
.	16een\JJ	.
.	16cc/LL	.
.	16g/	.
.	16en/	.
.	16c/JJ	.
=253	=253	=253
8CC/	16r	.
.	16d-/LL	.
8r	16f/	.
.	16a-/JJ	.
4F'\ 4A-'\	16cc\LL	.
.	16dd-\	.
.	16ff\	.
.	16aa-\JJ	.
=254	=254	=254
2F\ 2A-\	16ccc\LL	.
.	16ddd-\	.
.	16aa-\	.
.	16ff\JJ	.
.	16dd-/LL	.
.	16a-/	.
.	16f/	.
.	16d-/JJ	.
=255	=255	=255
8CC/	16r	.
.	16en/LL	.
8r	16g/	.
.	16b-/JJ	.
4G'\ 4B-'\	16dd#\LL	.
.	16een\	.
.	16gg\	.
.	16bb-\JJ	.
=256	=256	=256
2G\ 2B-\	16ddd#\LL	.
.	16eeen\	.
.	16bb-'\	.
.	16gg\JJ	.
.	16een\LL	.
.	16b-\	.
.	16g\	.
.	16en\JJ	.
=257	=257	=257
8FF/	16r	.
.	16f/LL	.
8r	16an/	.
.	16cc/JJ	.
4An'\ 4c'\	16een\LL	.
.	16ff\	.
.	16aan\	.
.	16ccc\JJ	.
=258	=258	=258
2An\ 2c\	16eeen\LL	.
.	16fff\	.
.	16ccc\	.
.	16aan\JJ	.
.	16ff\LL	.
.	16cc\	.
.	16an\	.
.	16f\JJ	.
=259	=259	=259
8FF/	16r	.
.	16g-\LL	.
8r	16b-\	.
.	16dd-\JJ	.
4B-'\ 4d-'\	16ff\LL	.
.	16gg-\	.
.	16bb-\	.
.	16ddd-\JJ	.
=260	=260	=260
2B-\ 2d-\	16fff\LL	.
.	16ggg-\	.
.	16ddd-\	.
.	16bb-\JJ	.
.	16gg-\LL	.
.	16dd-\	.
.	16b-\	.
.	16g-\JJ	.
=261	=261	=261
8FF/	16r	.
.	16an\LL	.
8r	16cc\	.
.	16ee-\JJ	.
4c'\ 4e-'\	16gg#\LL	.
.	16aan\	.
.	16ccc\	.
.	16eee-\JJ	.
=262	=262	=262
2c\ 2e-\	16ggg#\LL	.
.	16aaan\	.
.	16eee-\	.
.	16ccc\JJ	.
.	16aan\LL	.
.	16ee-\	.
.	16cc\	.
.	16an\JJ	.
=263	=263	=263
8BB-/	16r	.
.	16b-\LL	pp
8r	16ddn\	.
.	16ff\JJ	.
4dn'\ 4f'\	16aan\LL	.
.	16bb-\	.
.	16ff\	.
.	16dd\JJ	.
=264	=264	=264
2d\ 2f\	16b-\LL	.
.	16dd\	.
.	16ff\	.
.	16aan\JJ	.
.	16bb-\LL	.
.	16ff\	.
.	16dd\	.
.	16b-\JJ	.
=265	=265	=265
8BB-/	16r	.
.	16cc-\LL	.
8r	16ee-\	.
.	16gg-\JJ	.
*clefG2	*	*
4e-'/ 4g-'/	16bb-\LL	.
.	16ccc-\	.
.	16gg-\	.
.	16ee-\JJ	.
=266	=266	=266
2e-/ 2g-/	16cc-\LL	.
.	16ee-\	.
.	16gg-\	.
.	16bb-\JJ	.
.	16ccc-\LL	.
.	16gg-\	.
.	16ee-\	.
.	16cc-\JJ	.
*clefF4	*	*
=267	=267	=267
8BB-/	16r	.
.	16ddn\LL	.
8r	16ff\	.
.	16aa-\JJ	.
*clefG2	*	*
4f'/ 4a-'/	16ccc#\LL	.
.	16ddd\	.
.	16aa-\	.
.	16ff\JJ	.
=268	=268	=268
2f/ 2a-/	16dd\LL	.
.	16ff\	.
.	16aa-\	.
.	16ccc#\JJ	.
.	16ddd\LL	.
.	16aa-\	.
.	16ff\	.
.	16dd\JJ	.
*clefF4	*	*
=269	=269	=269
8E-\	16r	.
.	(16gg-\LL	pp
8r	16ff\	.
.	16gg-\JJ)	.
*clefG2	*	*
4B-'/ 4e-'/ 4g-'/	16r	.
.	(16bb-\LL	.
.	16aan\	.
.	16bb-\JJ)	.
=270	=270	=270
2B-/ 2e-/ 2g-/	16r	.
.	16eee-\LL	.
.	16ddd\	.
.	16eee-\JJ	.
.	16ggg-\LL	.
.	16eee-\	.
.	16ggg-\	.
.	16eee-\JJ	.
*clefF4	*	*
=271	=271	=271
8C/	16ggg-\LL	.
.	16fff\	.
8r	16eee-\	.
.	16ddd-\JJ	.
*clefG2	*	*
4A-'/ 4e-'/ 4g-'/	16ccc\LL	.
.	16ddd-\	.
.	16eee-\	.
.	16fff\JJ	.
=272	=272	=272
2A-/ 2e-/ 2g-/	16ggg-\LL	.
.	16fff\	.
.	16eee-\	.
.	16ddd-\JJ	.
.	16ccc\LL	.
.	16bb-\	.
.	16aa-\	.
.	16gg-\JJ	.
*clefF4	*	*
=273	=273	=273
8D-/	16r	.
.	(16ff\LL	pp
8r	16een\	.
.	16ff\JJ)	.
*clefG2	*	*
4A-'/ 4d-'/ 4f'/	16r	.
.	(16aa-\LL	.
.	16ggn\	.
.	16aa-\JJ)	.
=274	=274	=274
2A-/ 2d-/ 2f/	16r	.
.	16ddd-\LL	.
.	16ccc\	.
.	16ddd-\JJ	.
.	16fff\LL	.
.	16ddd-\	.
.	16fff\	.
.	16ddd-\JJ	.
*clefF4	*	*
=275	=275	=275
8BBn/	16fff\LL	.
.	16eee-\	.
8r	16dddn\	.
.	16ccc\JJ	.
4G'\ 4dn'\ 4f'\	16bbn\LL	.
.	16ccc\	.
.	16ddd\	.
.	16eee-\JJ	.
=276	=276	=276
2G\ 2d\ 2f\	16fff\LL	.
.	16eee-\	.
.	16ddd\	.
.	16ccc\JJ	.
.	16bbn\LL	.
.	16aa-\	.
.	16gg\	.
.	16ff\JJ	.
=277	=277	=277
8C/	16r	.
.	(16ee-\LL	pp
8r	16dd\	.
.	16ee-\JJ)	.
4G\ 4c\ 4e-\	16r	.
.	(16gg\LL	.
.	16ff#\	.
.	16gg\JJ)	.
=278	=278	=278
4G\ 4c\ 4e-\	16r	.
.	16bbn\LL	.
.	16ccc\	.
.	16bb\JJ	.
4C\	16ccc\LL	.
.	16ddd\	.
.	16eee-\	.
.	16fff#\JJ	.
=279	=279	=279
4GG/	16ggg\LL	.
.	16ddd\	.
.	16bbn\	.
.	16gg\JJ	.
4G\ 4Bn\ 4d\	16ff#\LL	.
.	16gg\	.
.	16bb\	.
.	16ddd\JJ	.
=280	=280	=280
4C/	16eee-\LL	.
.	16ccc\	.
.	16gg\	.
.	16ee-\JJ	.
4G\ 4c\ 4e-\	16ccc\LL	.
.	16gg\	.
.	16ee-\	.
.	16cc\JJ	.
=281	=281	=281
4GG/	16bbn\LL	.
.	16gg\	.
.	16dd\	.
.	16bn\JJ	.
4D\ 4G\ 4Bn\	16gg\LL	.
.	16dd\	.
.	16b\	.
.	16g\JJ	.
=282	=282	=282
4CC/	16ee-/LL	.
.	16cc/	.
.	16g/	.
.	16e-/JJ	.
4C\ 4E-\ 4G\	16cc/LL	.
.	16g/	.
.	16e-/	.
.	16c/JJ	.
=283	=283	=283
4GGG/	16bn/LL	.
.	16g/	.
.	16d/	.
.	16Bn/JJ	.
4BBn\ 4D\ 4G\	16d/LL	.
.	16f/	.
.	16b/	.
.	16dd/JJ	.
=284	=284	=284
4CC/	16cc/LL	.
.	16g/	.
.	16e-/	.
.	16c/JJ	.
4GG/ 4C/ 4E-/	16g/LL	.
.	16e-/	.
.	16c/	.
.	16G/JJ	.
=285	=285	=285
8GGG/ 8GG/	16g/LL	f
.	16d/	.
8r	16Bn/	.
.	16G/JJ	.
16BBn/LL	16B/LL	.
16D/	16d/	.
16BB/	16B/	.
16GG/JJ	16G/JJ	.
*	*clefF4	*clefF4
=286	=286	=286
16C/LL	16c\LL	>
16GG/	16G\	.
16EE-/	16E-\	.
16GG/JJ	16G\JJ	.
16EE-/LL	16E-\LL	.
16GG/	16G\	.
16EE-/	16E-\	.
16CC/JJ	16C\JJ	.
=287	=287	=287
8GGG/	16r	.
.	(16G\LL	pp
8r	16D\	.
.	16BBn\JJ)	.
(4A-'\	16r	.
.	(16G\LL	.
.	16D\	.
.	16BB\JJ)	.
=288	=288	=288
4A-'\	16r	.
.	16G\LL	.
.	16D\	.
.	16BBn\JJ	.
4A-'\)	16r	.
.	16G\LL	.
.	16D\	.
.	16BB\JJ	.
=289	=289	=289
8CC/	16r	.
.	(16An\LL	.
8r	16E-\	.
.	16C\JJ)	.
(4F#'\	16r	.
.	(16A\LL	.
.	16E-\	.
.	16C\JJ)	.
=290	=290	=290
4F#'\	16r	.
.	16An\LL	.
.	16E-\	.
.	16C\JJ	.
4F#'\)	16r	.
.	16A\LL	.
.	16E-\	.
.	16C\JJ	.
=291	=291	=291
8GGG/	16r	.
.	(16G\LL	f
8r	16D\	.
.	16BBn\JJ)	.
(4A-'\	16r	.
.	(16G\LL	.
.	16D\)	.
.	16BB\JJ	.
=292	=292	=292
4A-'\	16r	.
.	16G\LL	.
.	16D\	.
.	16BBn\JJ	.
4A-'\)	16r	.
.	16G\LL	.
.	16D\	.
.	16BB\JJ	.
=293	=293	=293
8CC/	16r	.
.	(16An\LL	.
8r	16E-\	.
.	16C\JJ)	.
(4F#'\	16r	.
.	(16A\LL	.
.	16E-\	.
.	16C\JJ)	.
=294	=294	=294
4F#'\	16r	.
.	16An\LL	.
.	16E-\	.
.	16C\JJ	.
4F#'\)	16r	.
.	16A\LL	.
.	16E-\	.
.	16C\JJ	.
=295	=295	=295
8GGG/	16G\LL	f
.	16D\	.
8r	16BBn\	.
.	16D\JJ	.
4Bn''\	16G\LL	.
.	16D\	.
.	16BB\	.
.	16D\JJ	.
=296	=296	=296
2Bn\	16G\LL	.
.	16D\	.
.	16BBn\	.
.	16D\JJ	.
.	16G\LL	.
.	16D\	.
.	16BB\	.
.	16D\JJ	.
=297	=297	=297
8GGG/	16Bn\LL	.
.	16G\	.
8r	16D\	.
.	16G\JJ	.
4d''\	16B\LL	.
.	16G\	.
.	16D\	.
.	16G\JJ	.
=298	=298	=298
2d\	16Bn\LL	.
.	16G\	.
.	16D\	.
.	16G\JJ	.
.	16B\LL	.
.	16G\	.
.	16D\	.
.	16G\JJ	.
=299	=299	=299
8GGG/	16d\LL	.
.	16Bn\	.
8r	16G\	.
.	16B\JJ	.
4f''\	16d\LL	.
.	16B\	.
.	16G\	.
.	16B\JJ	.
=300	=300	=300
2f\	16d\LL	.
.	16Bn\	.
.	16G\	.
.	16B\JJ	.
.	16d\LL	.
.	16B\	.
.	16G\	.
.	16B\JJ	.
*	*clefG2	*clefG2
=301	=301	=301
4r	16f/LL	>
.	16Bn/ 16d/	.
.	16G/	.
.	16B/ 16d/JJ	.
*clefG2	*	*
4bn\	16f/LL	.
.	16B/ 16d/	.
.	16G/	.
.	16B/ 16d/JJ	.
=302	=302	=302
4r	16f/LL	.
.	16Bn/ 16d/	.
.	16G/	.
.	16B/ 16d/JJ	.
4dd\	16f/LL	.
.	16B/ 16d/	.
.	16G/	.
.	16B/ 16d/JJ	.
=303	=303	=303
4r	16f/LL	p
.	16Bn/ 16d/	.
.	16G/	.
.	16B/ 16d/JJ	.
4ff\	16f/LL	.
.	16B/ 16d/	.
.	16G/	.
.	16B/ 16d/JJ	.
=304	=304	=304
4r	16f/LL	>
.	16Bn/ 16d/	.
.	16G/	.
.	16B/ 16d/JJ	.
4ff\	16f/LL	.
.	16B/ 16d/	.
.	16G/	.
.	16B/ 16d/JJ	.
=305	=305	=305
4ff\	16f/LL	pp
.	16Bn/ 16d/	.
.	16G/	.
.	16B/ 16d/JJ	.
*clefF4	*	*
(4AAA-/ 4AA-/	16f/LL	.
.	16B/ 16d/	.
.	16G/	.
.	16B/ 16d/JJ	.
=306	=306	=306
8GGG/) 8GG/	16f/LL	.
.	16Bn/ 16d/	.
8r	16G/	.
.	16B/ 16d/JJ	.
*clefG2	*	*
4ff\	16f/LL	.
.	16B/ 16d/	.
.	16G/	.
.	16B/ 16d/JJ	.
=307	=307	=307
4ff\	16f/LL	.
.	16Bn/ 16d/	.
.	16G/	.
.	16B/ 16d/JJ	.
*clefF4	*	*
(4AAA-/ 4AA-/	16f/LL	.
.	16B/ 16d/	.
.	16G/	.
.	16B/ 16d/JJ	.
=308	=308	=308
8GGG/) 8GG/	16f/LL	.
.	16Bn/ 16d/	.
8r	16G/	.
.	16B/ 16d/JJ	.
*clefG2	*	*
4ff\	16f/LL	pp
.	16B/ 16d/	.
.	16G/	.
.	16B/ 16d/JJ	.
=309	=309	=309
4r	16f/LL	.
.	16Bn/ 16d/	.
.	16G/	.
.	16B/ 16d/JJ	.
4ff\	16f/LL	.
.	16B/ 16d/	.
.	16G/	.
.	16B/ 16d/JJ	.
*clefF4	*	*
=310	=310	=310
4r	16f/LL	.
.	16Bn/ 16d/	.
.	16G/	.
.	16B/ 16d/JJ	.
4A-\	16f/LL	.
.	16B/ 16d/	.
.	16G/	.
.	16B/ 16d/JJ	.
=311	=311	=311
4r	16f/LL	.
.	16Bn/ 16d/	.
.	16G/	.
.	16B/ 16d/JJ	.
4GG/	16f/LL	.
.	16B/ 16d/	.
.	16G/	.
.	16B/ 16d/JJ	.
=312	=312	=312
4r	16f/LL	.
.	16Bn/ 16d/	.
.	16G/	.
.	16B/ 16d/JJ	.
8GGG/ 8GG/L	16B/ 16bn/LL	f
.	16d/ 16f/	.
8GGG/ 8GG/J	16B/ 16b/	.
.	16d/ 16f/JJ	.
=313	=313	=313
*k[]	*k[]	*k[]
*C:	*C:	*C:
16CC/ 16C/	8c/ 8e/ 8cc/	ff
16GG/LL	.	.
16C/	8r	.
16E/JJ	.	.
16G\LL	4gg''\ 4ggg''\	.
16C\	.	.
16E\	.	.
16G\JJ	.	.
=314	=314	=314
16c\LL	4.gg\ (4.ggg\	.
16E\	.	.
16G\	.	.
16c\JJ	.	.
16e\LL	.	.
16G\	.	.
16c\	8ee\ 8eee\	.
16e\JJ	.	.
=315	=315	=315
16f\LL	4dd\ 4ddd\	.
16e\	.	.
16d\	.	.
16c\JJ	.	.
16B\LL	4g\ 4gg\	.
16A\	.	.
16G\	.	.
16F\JJ	.	.
=316	=316	=316
16E\LL	4cc\ 4ccc\	.
16G\	.	.
16C\	.	.
16E\JJ	.	.
16GG/LL	8ee\ 8eee\)	.
16C/	.	.
16EE/	8r	.
16GG/JJ	.	.
=317	=317	=317
16CC/	4r	.
16GG/LL	.	.
16C/	.	.
16E/JJ	.	.
16G\LL	4gg''\ 4ggg''\	.
16C\	.	.
16E\	.	.
16G\JJ	.	.
=318	=318	=318
16c\LL	4.gg\ (4.ggg\	.
16E\	.	.
16G\	.	.
16c\JJ	.	.
16e\LL	.	.
16G\	.	.
16c\	8ee\ 8eee\	.
16e\JJ	.	.
=319	=319	=319
16f\LL	4dd\ 4ddd\	.
16e\	.	.
16d\	.	.
16c\JJ	.	.
16B\LL	4g\ 4gg\	.
16G\	.	.
16A\	.	.
16B\JJ	.	.
=320	=320	=320
16c'\LL	8cc\ 8ccc\)	.
16B'\	.	.
16A'\	8r	.
16G'\JJ	.	.
16F'\LL	4r	.
16E'\	.	.
16D'\	.	.
16C'\JJ	.	.
=321	=321	=321
16GG\LL	4r	.
16BB\	.	.
16D\	.	.
16G\JJ	.	.
16BB\LL	4ff''\ 4fff''\	.
16D\	.	.
16G\	.	.
16B\JJ	.	.
=322	=322	=322
16D\LL	4.ff\ (4.fff\	.
16G\	.	.
16B\	.	.
16d\JJ	.	.
16G\LL	.	.
16B\	.	.
16d\	8dd\ 8ddd\	.
16g\JJ	.	.
=323	=323	=323
16G\LL	4ee\ 4eee\	.
16c\	.	.
16g\	.	.
16c\JJ	.	.
16G\LL	4cc\ 4ccc\	.
16e\	.	.
16g\	.	.
16e\JJ	.	.
=324	=324	=324
16G\LL	4b\ 4bb\	.
16d\	.	.
16g\	.	.
16d\JJ	.	.
16G\LL	8dd\ 8ddd\)	.
16B\	.	.
16g\	8r	.
16B\JJ	.	.
=325	=325	=325
16GG\LL	4r	.
16BB\	.	.
16D\	.	.
16G\JJ	.	.
16BB\LL	4ff''\ 4fff''\	.
16D\	.	.
16G\	.	.
16B\JJ	.	.
=326	=326	=326
16D\LL	4.ff\ (4.fff\	.
16G\	.	.
16B\	.	.
16d\JJ	.	.
16G\LL	.	.
16B\	.	.
16d\	8dd\ 8ddd\	.
16g\JJ	.	.
=327	=327	=327
16G\LL	4ee-\ 4eee-\	.
16c\	.	.
16g\	.	.
16c\JJ	.	.
16G\LL	4cc\ 4ccc\	.
16e-\	.	.
16g\	.	.
16e-\JJ	.	.
=328	=328	=328
16G\LL	4b\ 4bb\	.
16d\	.	.
16g\	.	.
16d\JJ	.	.
16G\LL	4dd\ 4ddd\)	.
16B\	.	.
16g\	.	.
16B\JJ	.	.
=329	=329	=329
16G\LL	4een\ (4eeen\	<
16c\	.	.
16g\	.	.
16c\JJ	.	.
16G\LL	4cc\ 4ccc\	.
16en\	.	.
16g\	.	.
16e\JJ	.	.
=330	=330	=330
16G\LL	4b\ 4bb\	.
16d\	.	.
16g\	.	.
16d\JJ	.	.
16G\LL	4dd\ 4ddd\	.
16B\	.	.
16g\	.	.
16B\JJ	.	.
=331	=331	=331
16G\LL	4ee-\ 4eee-\	p
16c\	.	.
16g\	.	.
16c\JJ	.	.
16G\LL	4cc\ 4ccc\)	>
16c\	.	.
16e-\	.	.
16c\JJ	.	.
=332	=332	=332
16G\LL	(4gg'\	.
16B\	.	.
16d\	.	.
16B\JJ	.	.
16G\LL	4gg'\)	.
16c\	.	.
16e-\	.	.
16c\JJ	.	.
=333	=333	=333
.	aanq/	.
16G'\LL	[2gg\	<
(16B\	.	.
16d\	.	.
16B\JJ)	.	.
16G'\LL	.	.
(16c\	.	.
16en\	.	.
16c\JJ)	.	.
=334	=334	=334
16G'\LL	2gg\_	.
(16B\	.	.
16d\	.	.
16B\JJ)	.	.
16G'\LL	.	.
(16A\	.	.
16c\	.	.
16A\JJ)	.	.
=335	=335	=335
16G'\LL	2gg\_	.
(16B\	.	.
16A\	.	.
16G\JJ)	.	.
16F'\LL	.	.
(16A\	.	.
16G\	.	.
16F\JJ)	.	.
=336	=336	=336
16E'\LL	2gg\]	ff
(16G\	.	.
16F\	.	.
16E\JJ)	.	.
16D'\LL	.	.
(16F\	.	.
16E\	.	.
16D\JJ)	.	.
=337	=337	=337
*	*^	*
16CC/ 16C/LL	4r	[2gg\	.
(32D/L	.	.	.
32E/JJJ	.	.	.
32F\LLL	.	.	.
32G\	.	.	.
32A\	.	.	.
32B\JJJ)	.	.	.
*clefG2	*	*	*
16c''/LL	4ggg''/	.	.
(32d/L	.	.	.
32e/JJJ	.	.	.
32f/LLL	.	.	.
32g/	.	.	.
32a/	.	.	.
32b/JJJ)	.	.	.
=338	=338	=338	=338
16cc''/LL	(4.ggg/	2gg\_	>
16b'/	.	.	.
16a'/	.	.	.
16g'/JJ	.	.	.
16f'/LL	.	.	.
16e'/	.	.	.
16d'/	8eee/	.	.
16c'/JJ	.	.	.
*clefF4	*	*	*
=339	=339	=339	=339
16B'\LL	4ddd/)	4gg\]	.
16c'\	.	.	.
16B'\	.	.	.
16A'\JJ	.	.	.
16G'\LL	4gg/	[4gg\	.
16F'\	.	.	.
16E'\	.	.	.
16D'\JJ	.	.	.
=340	=340	=340	=340
16C'/LL	(4ccc/	2gg\]	.
16C'/	.	.	.
16BB'/	.	.	.
16AA'/JJ	.	.	.
16GG'/LL	8eee/)	.	.
16FF'/	.	.	.
16EE'/	8r	.	.
16DD'/JJ	.	.	.
=341	=341	=341	=341
16CC''/ 16C''/LL	4r	2gg\	ff
(32D/L	.	.	.
32E/JJJ	.	.	.
32F\LLL	.	.	.
32G\	.	.	.
32A\	.	.	.
32B\JJJ)	.	.	.
*clefG2	*	*	*
16c''/LL	4ggg/	.	.
(32d/L	.	.	.
32e/JJJ	.	.	.
32f/LLL	.	.	.
32g/	.	.	.
32a/	.	.	.
32b/JJJ)	.	.	.
=342	=342	=342	=342
16cc''/LL	(4.ggg/	[2gg\	>
16b'/	.	.	.
16a'/	.	.	.
16g'/JJ	.	.	.
16f'/LL	.	.	.
16e'/	.	.	.
16d'/	8eee/	.	.
16c'/JJ	.	.	.
*clefF4	*	*	*
=343	=343	=343	=343
16B'\LL	4ddd/)	4gg\]	.
16c'\	.	.	.
16B'\	.	.	.
16A'\JJ	.	.	.
16G'\LL	4gg/	4gg\	.
16F'\	.	.	.
16E'\	.	.	.
16D'\JJ	.	.	.
=344	=344	=344	=344
*^	*	*	*
8C/L	4.r	8ccc/	8ccc\	.
8CC/J	.	4.r	8r	.
8r	.	.	24c/LL	f
.	.	.	24e/	.
.	.	.	24c/JJ	.
24G/LL	8CC'\ 8C'\	.	8r	.
24E/	.	.	.	.
24G/JJ	.	.	.	.
*	*	*v	*v	*
=345	=345	=345	=345
8r	8r	24c/LL	.
.	.	24f/	.
.	.	24c/JJ	.
24A/LL	8CC'\ 8C'\	8r	.
24F/	.	.	.
24A/JJ	.	.	.
8r	8r	24c/LL	.
.	.	24e/	.
.	.	24c/JJ	.
24G/LL	8CC'\ 8C'\	8r	.
24E/	.	.	.
24G/JJ	.	.	.
=346	=346	=346	=346
8r	8r	24c/LL	.
.	.	24d/	.
.	.	24c/JJ	.
24F/LL	8CC'\ 8C'\	8r	.
24D/	.	.	.
24F/JJ	.	.	.
8r	8r	24c/LL	.
.	.	24d#/	.
.	.	24c/JJ	.
24F#/LL	8CC'\ 8C'\	8r	.
24D#/	.	.	.
24F#/JJ	.	.	.
=347	=347	=347	=347
8r	8r	24c/LL	.
.	.	24e/	.
.	.	24c/JJ	.
24G/LL	8CC'\ 8C'\	8r	.
24E/	.	.	.
24G/JJ	.	.	.
24B/LL	8r	8r	.
24d/	.	.	.
24B/JJ	.	.	.
24Fn/LL	8CC\ 8C\	8r	.
24Dn/	.	.	.
24F/JJ	.	.	.
=348	=348	=348	=348
24G/LL	8r	4r	.
24c/	.	.	.
24G/JJ	.	.	.
24E/LL	8CC'\ 8C'\	.	.
24C/	.	.	.
24E/JJ	.	.	.
8r	4r	24e/LL	.
.	.	24g/	.
.	.	24e/JJ	.
8EE'/ 8C'/ 8E'/	.	24c/LL	.
.	.	24G/	.
.	.	24c/JJ	.
*v	*v	*	*
=349	=349	=349
8r	24f/LL	.
.	24a/	.
.	24f/JJ	.
8FF'/ 8C'/ 8F'/	24c/LL	.
.	24A/	.
.	24c/JJ	.
8r	24e/LL	.
.	24g/	.
.	24e/JJ	.
8EE'/ 8C'/ 8E'/	24c/LL	.
.	24G/	.
.	24c/JJ	.
=350	=350	=350
*^	*	*
8r	8r	24d/LL	.
.	.	24f/	.
.	.	24d/JJ	.
24c/LL	8DD'\ 8C'\ 8D'\	8r	.
24F/	.	.	.
24c/JJ	.	.	.
8r	8r	24d#/LL	.
.	.	24f#/	.
.	.	24d#/JJ	.
24c/LL	8DD#'\ 8C'\ 8D#'\	8r	.
24F#/	.	.	.
24c/JJ	.	.	.
=351	=351	=351	=351
8r	8r	24e/LL	.
.	.	24g/	.
.	.	24e/JJ	.
24c/LL	8EE'\ 8C'\ 8E'\	8r	.
24G/	.	.	.
24c/JJ	.	.	.
8r	8r	24dn/LL	.
.	.	24fn/	.
.	.	24d/JJ	.
24B/LL	8DDn\ 8C\ 8Dn\	8r	.
24Fn/	.	.	.
24B/JJ	.	.	.
=352	=352	=352	=352
8r	8r	24c/LL	.
.	.	24e/	.
.	.	24c/JJ	.
24G/LL	8CC'\ 8C'\	8r	.
24E/	.	.	.
24G/JJ	.	.	.
24CC/LL	4r	24g/LL	f
24EE/	.	24cc/	.
24GG/JJ	.	24g/JJ	.
24C/LL	.	24e/LL	.
24GG/	.	24c/	.
24EE/JJ	.	24e/JJ	.
*v	*v	*	*
=353	=353	=353
24CC/LL	24a/LL	.
24FF/	24cc/	.
24AA/JJ	24a/JJ	.
24C/LL	24f/LL	.
24AA/	24c/	.
24FF/JJ	24f/JJ	.
24CC/LL	24g/LL	.
24EE/	24cc/	.
24GG/JJ	24g/JJ	.
24C/LL	24e/LL	.
24GG/	24c/	.
24EE/JJ	24e/JJ	.
=354	=354	=354
24CC/LL	24f/LL	.
24DD/	24cc/	.
24FF/JJ	24f/JJ	.
24C/LL	24d/LL	.
24FF/	24c/	.
24DD/JJ	24d/JJ	.
24CC/LL	24f#/LL	.
24DD#/	24cc/	.
24FF#/JJ	24f#/JJ	.
24C/LL	24d#/LL	.
24FF#/	24c/	.
24DD#/JJ	24d#/JJ	.
=355	=355	=355
24CC/LL	24g/LL	.
24EE/	24cc/	.
24GG/JJ	24g/JJ	.
24C/LL	24e/LL	.
24GG/	24c/	.
24EE/JJ	24e/JJ	.
24CC/LL	24fn/LL	.
24DDn/	24b/	.
24FFn/JJ	24f/JJ	.
24C/LL	24dn/LL	.
24FF/	24B/	.
24DD/JJ	24d/JJ	.
=356	=356	=356
24CC/LL	24g/LL	.
24EE/	24cc/	.
24GG/JJ	24g/JJ	.
24C/LL	24e/LL	.
24GG/	24c/	.
24EE/JJ	24e/JJ	.
24CC/LL	24cc/LL	.
24C/	24ee/	.
24E/JJ	24cc/JJ	.
24G/LL	24g/LL	.
24E/	24e/	.
24C/JJ	24g/JJ	.
=357	=357	=357
24CC/LL	24cc/LL	.
24C/	24ff/	.
24F/JJ	24cc/JJ	.
24A/LL	24a/LL	.
24F/	24f/	.
24C/JJ	24a/JJ	.
24CC/LL	24cc/LL	.
24C/	24ee/	.
24E/JJ	24cc/JJ	.
24G/LL	24g/LL	.
24E/	24e/	.
24C/JJ	24g/JJ	.
=358	=358	=358
24CC/LL	24cc/LL	.
24C/	24dd/	.
24D/JJ	24cc/JJ	.
24F/LL	24f/LL	.
24D/	24d/	.
24C/JJ	24f/JJ	.
24CC/LL	24cc/LL	.
24C/	24dd#/	.
24D#/JJ	24cc/JJ	.
24F#/LL	24f#/LL	.
24D#/	24d#/	.
24C/JJ	24f#/JJ	.
=359	=359	=359
24CC/LL	24cc/LL	.
24C/	24ee/	.
24E/JJ	24cc/JJ	.
24G/LL	24g/LL	.
24E/	24e/	.
24C/JJ	24g/JJ	.
24CC/LL	24b/LL	.
24C/	24dd/	.
24Dn/JJ	24b/JJ	.
24Fn/LL	24fn/LL	.
24D/	24dn/	.
24C/JJ	24f/JJ	.
=360	=360	=360
24CC/LL	24g/LL	.
24C/	24cc/	.
24E/JJ	24g/JJ	.
24G/LL	24e/LL	.
24E/	24c/	.
24C/JJ	24e/JJ	.
24CC/LL	24cc/LL	.
24C/	24ee/	.
24E/JJ	24cc/JJ	.
24G/LL	24g/LL	.
24E/	24e/	.
24C/JJ	24g/JJ	.
=361	=361	=361
24GG/LL	24b/LL	.
24BB/	24dd/	.
24D/JJ	24b/JJ	.
24G/LL	24g/LL	.
24D/	24d/	.
24BB/JJ	24g/JJ	.
24DD/LL	24dd/LL	.
24D/	24ff/	.
24F/JJ	24dd/JJ	.
24A/LL	24a/LL	.
24F/	24f/	.
24D/JJ	24a/JJ	.
=362	=362	=362
24AA/LL	24cc/LL	.
24C/	24ee/	.
24E/JJ	24cc/JJ	.
24A/LL	24a/LL	.
24E/	24e/	.
24C/JJ	24a/JJ	.
24FF/LL	24ff\LL	.
24C/	24aa\	.
24D/JJ	24ff\JJ	.
24F/LL	24cc\LL	.
24D/	24a\	.
24C/JJ	24cc\JJ	.
=363	=363	=363
24GG/LL	24dd\LL	.
24C/	24gg\	.
24D/JJ	24dd\JJ	.
24G/LL	24cc\LL	.
24D/	24g\	.
24C/JJ	24cc\JJ	.
24GG/LL	24dd\LL	.
24BB/	24gg\	.
24D/JJ	24dd\JJ	.
24G/LL	24b\LL	.
24D/	24g\	.
24BB/JJ	24b\JJ	.
=364	=364	=364
24CC/LL	24ee\LL	.
24C/	24gg\	.
24E/JJ	24ee\JJ	.
24G/LL	24cc\LL	.
24E/	24g\	.
24C/JJ	24cc\JJ	.
24CC/LL	24ee\LL	.
24C/	24gg\	.
24E/JJ	24ee\JJ	.
24G/LL	24cc\LL	.
24E/	24g\	.
24C/JJ	24cc\JJ	.
=365	=365	=365
24GG/LL	24dd'\LL	.
24BB/	24gg\	.
24D/JJ	24dd\JJ	.
24G/LL	24b\LL	.
24D/	24g\	.
24BB/JJ	24b\JJ	.
24DD/LL	24ff\LL	.
24D/	24aa\	.
24F/JJ	24ff\JJ	.
24A/LL	24dd\LL	.
24F/	24a\	.
24D/JJ	24dd\JJ	.
=366	=366	=366
24AA/LL	24ee\LL	.
24C/	24aa\	.
24E/JJ	24ee\JJ	.
24A/LL	24cc\LL	.
24E/	24a\	.
24C/JJ	24cc\JJ	.
24AA/LL	24aa\LL	.
24C/	24ccc\	.
24E/JJ	24aa\JJ	.
24A/LL	24ee\LL	.
24E/	24cc\	.
24C/JJ	24ee\JJ	.
=367	=367	=367
24DD/LL	24aa\LL	.
24AA/	24ccc\	.
24C/JJ	24aa\JJ	.
24D/LL	24ff#\LL	.
24C/	24cc\	.
24AA/JJ	24ff#\JJ	.
24DD/LL	24aa\LL	.
24AA/	24ccc\	.
24C/JJ	24aa\JJ	.
24D/LL	24ff#\LL	.
24C/	24cc\	.
24AA/JJ	24ff#\JJ	.
=368	=368	=368
24GG/LL	24gg\LL	.
24D/	24bb\	.
24G/JJ	24gg\JJ	.
24GG/LL	24dd\LL	.
24D/	24b\	.
24G/JJ	24dd\JJ	.
24GG/LL	24aa\LL	.
24C/	24ddd\	.
24D/JJ	24aa\JJ	.
24GG/LL	24ff#\LL	.
24C/	24dd\	.
24D/JJ	24ff#\JJ	.
=369	=369	=369
24GG/LL	24bb\LL	.
24BB/	24ddd\	.
24D/JJ	24bb\JJ	.
24GG/LL	24gg\LL	.
24BB/	24dd\	.
24D/JJ	24gg\JJ	.
24GG/LL	24aa\LL	.
24C/	24ddd\	.
24D/JJ	24aa\JJ	.
24GG/LL	24ff#\LL	.
24C/	24dd\	.
24D/JJ	24ff#\JJ	.
=370	=370	=370
24GG/LL	24bb\LL	.
24BB/	24ddd\	.
24D/JJ	24bb\JJ	.
24GG/LL	24gg\LL	.
24BB/	24dd\	.
24D/JJ	24gg\JJ	.
24GG/LL	24ddd\LL	p
24C/	24fff#\	.
24D/JJ	24ddd\JJ	.
24A/LL	24aa\LL	.
24D/	24ff#\	.
24C/JJ	24aa\JJ	.
=371	=371	=371
24GG/LL	24ddd\LL	.
24BB/	24ggg\	.
24D/JJ	24ddd\JJ	.
24G/LL	24bb\LL	.
24D/	24gg\	.
24BB/JJ	24bb\JJ	.
24GG/LL	24ddd\LL	.
24C/	24fff#\	.
24D/JJ	24ddd\JJ	.
24A/LL	24aa\LL	.
24D/	24ff#\	.
24C/JJ	24aa\JJ	.
=372	=372	=372
24GG/LL	24ddd\LL	.
24BB/	24ggg\	.
24D/JJ	24ddd\JJ	.
24G/LL	24bb\LL	.
24D/	24gg\	.
24BB/JJ	24bb\JJ	.
24GG/LL	24aa\LL	ff
24C/	24ddd\	.
24D/JJ	24aa\JJ	.
24GG/LL	24ff#\LL	.
24C/	24dd\	.
24D/JJ	24ff#\JJ	.
=373	=373	=373
24GG/LL	24bb\LL	.
24BB/	24ddd\	.
24D/JJ	24bb\JJ	.
24GG/LL	24gg\LL	.
24BB/	24dd\	.
24D/JJ	24gg\JJ	.
24GG/LL	24aa\LL	.
24C/	24ddd\	.
24D/JJ	24aa\JJ	.
24GG/LL	24ff#\LL	.
24C/	24dd\	.
24D/JJ	24ff#\JJ	.
=374	=374	=374
24GG/LL	24bb\LL	.
24BB/	24ddd\	.
24D/JJ	24bb\JJ	.
24GG/LL	24gg\LL	.
24BB/	24dd\	.
24D/JJ	24gg\JJ	.
24GG/LL	24ddd\LL	p
24C/	24fff#\	.
24D/JJ	24ddd\JJ	.
24A/LL	24aa\LL	.
24D/	24ff#\	.
24C/JJ	24aa\JJ	.
=375	=375	=375
24GG/LL	24ddd\LL	.
24BB/	24ggg\	.
24D/JJ	24ddd\JJ	.
24G/LL	24bb\LL	.
24D/	24gg\	.
24BB/JJ	24bb\JJ	.
24GG/LL	24ddd\LL	.
24C/	24fff#\	.
24D/JJ	24ddd\JJ	.
24A/LL	24aa\LL	.
24D/	24ff#\	.
24C/JJ	24aa\JJ	.
=376	=376	=376
24GG/LL	24ddd\LL	.
24BB/	24ggg\	.
24D/JJ	24ddd\JJ	.
24G/LL	24bb\LL	.
24D/	24gg\	.
24BB/JJ	24bb\JJ	.
24GG/LL	24ddd\LL	.
24C/	24fff#\	.
24D/JJ	24ddd\JJ	.
24A/LL	24aa\LL	.
24D/	24ff#\	.
24C/JJ	24aa\JJ	.
=377	=377	=377
24GG/LL	24ddd\LL	.
24BB/	24ggg\	.
24D/JJ	24ddd\JJ	.
24G/LL	24bb\LL	.
24D/	24gg\	.
24BB/JJ	24bb\JJ	.
24GG/LL	24ddd\LL	.
24C/	24fff#\	.
24D/JJ	24ddd\JJ	.
24A/LL	24aa\LL	.
24D/	24ff#\	.
24C/JJ	24aa\JJ	.
=378	=378	=378
8GG/ 8BB/ 8D/ 8G/	8gg\ 8ggg\	.
8r	8r	.
4r	4g''\ 4b''\ 4dd''\ 4gg''\	ff
=379	=379	=379
4r	2g\ 2b\ 2dd\ 2gg\	.
4GG''/ 4BB''/ 4D''/ 4G''/	.	.
=380	=380	=380
8GGG/ 8GG/	4r	.
8r	.	.
4r	4b''\ 4dd''\ 4gg''\ 4bb''\	.
=381	=381	=381
4r	2b\ 2dd\ 2gg\ 2bb\	.
4GG''/ 4BB''/ 4D''/ 4G''/	.	.
=382	=382	=382
8GGG/ 8GG/	4r	.
8r	.	.
4r	4dd''\ 4ff''\ 4bb''\ 4ddd''\	.
=383	=383	=383
4r	2dd\ 2ff\ 2bb\ 2ddd\	.
4GG''/ 4BB''/ 4D''/ 4G''/	.	.
=384	=384	=384
8GGG/ 8GG/	4r	.
8r	.	.
4r	4ff''\ 4bb''\ 4ddd''\ 4fff''\	.
=385	=385	=385
4r	2ff\ 2bb\ 2ddd\ 2fff\	>
4GG''/ 4BB''/ 4D''/ 4G''/	.	.
=386	=386	=386
8GGG/ 8GG/	4r	.
8r	.	.
4r	4bb\ 4ddd\ (4fff\	.
=387	=387	=387
4G'\ 4B'\ 4d'\ 4f'\	4r	.
4r	4aa-'\ 4bb'\ 4ddd'\ 4fff'\	.
=388	=388	=388
4G'\ 4B'\ 4d'\ 4f'\	4r	.
4r	4ff'\ 4aa-'\ 4bb'\ 4ddd'\	.
=389	=389	=389
4G'\ 4B'\ 4d'\ 4f'\	4r	.
4r	4dd'\ 4ff'\ 4aa-'\ 4bb'\	.
=390	=390	=390
4G'\ 4B'\ 4d'\ 4f'\	4r	.
4r	4b'\ 4dd'\ 4ff'\ 4aa-'\	p
=391	=391	=391
4GG'/ 4BB'/ 4D'/ 4F'/	4r	.
4r	4a-'\ 4b'\ 4dd'\ 4ff'\	.
=392	=392	=392
4GG'/ 4BB'/ 4D'/ 4F'/	4r	.
4r	4f'/ 4a-'/ 4b'/ 4dd'/	.
=393	=393	=393
4GG'/ 4BB'/ 4D'/ 4F'/	4r	.
4r	4d'/ 4f'/ 4a-'/ 4b'/	.
=394	=394	=394
4GG'/ 4BB'/ 4D'/ 4F'/	4r	.
4r	4B'/ 4d'/ 4f'/ 4a-'/)	pp
=395	=395	=395
2r	2r	.
=396	=396	=396
4GG/ 4BB-/ 4C#/ 4En/	4r	.
4r	4en/ 4g/	.
=397	=397	=397
2r	2r	.
=398	=398	=398
4GGn/ 4AAn/ 4C/ 4E-/	4r	.
4r	4An/ 4cn/ 4e-/ 4f#/	.
=399	=399	=399
2r	2r	.
=400	=400	=400
8GG/	4r	.
8r	.	.
4r	[4B/ [4d/ [4f/	ppp
*clefG2	*	*
=401	=401	=401
8gg\	2B/_ 2d/_ 2f/_	.
8r	.	.
*clefF4	*	*
8G\	.	.
8r	.	.
=402	=402	=402
8GG/	4B/_ 4d/_ 4f/_	.
8r	.	.
4GGG;/	4B;/] 4d;/] 4f;/]	.
=	=	=
*M2/2	*M2/2	*M2/2
*MM220	*MM220	*MM220
4CC/ 4C/	4c/	f
*clefG2	*	*
8e/L	4ggg\	p
8g/J	.	.
8e/L	(4.ggg\	.
8g/	.	.
8e/	.	.
8g/J	8eee\	.
=403	=403	=403
8f/L	4ddd\	.
8g/	.	.
8f/	4gg\	.
8g/J	.	.
8e/L	4ccc\	.
8g/	.	.
8e/	4eee\)	.
8g/J	.	.
=404	=404	=404
8e/L	4r	.
8g/	.	.
8e/	4ggg''\	.
8g/J	.	.
8e/L	(4.ggg\	.
8g/	.	.
8e/	.	.
8g/J	8eee\	.
=405	=405	=405
8f/L	4ddd\	.
8g/	.	.
8f/	4gg\	.
8g/J	.	.
8e/L	4ccc\)	.
8g/	.	.
8e/	4r	.
8g/J	.	.
=406	=406	=406
*^	*	*
8e/L	4c\	8ggg\L	.
8g/	.	8fff#\	.
8e/	4c\	8ggg\	.
8g/J	.	8fff#\J	.
8e/L	4c\	8ggg\L	.
8g/	.	8fff#\	.
8e/	4c\	8ggg\	.
8g/J	.	8eee\J	.
=407	=407	=407	=407
8f/L	4c\	8ddd\L	.
8g/	.	8ccc#\	.
8f/	4c\	8ddd\	.
8g/J	.	8gg\J	.
8e/L	4c\	8cccn\L	.
8g/	.	8bb\	.
8e/	4c\	8ccc\	.
8g/J	.	8eee\J	.
=408	=408	=408	=408
8e/L	4c\	8ggg\L	.
8g/	.	8fff#\	.
8e/	4c\	8ggg\	.
8g/J	.	8fff#\J	.
8e/L	4c\	8ggg\L	.
8g/	.	8fff#\	.
8e/	4c\	8ggg\	.
8g/J	.	8eee\J	.
=409	=409	=409	=409
8f/L	4c\	8ddd\L	.
8g/	.	8ccc#\	.
8f/	4c\	8ddd\	.
8g/J	.	8gg\J	.
8e/L	4c\	8cccn\L	.
8g/	.	8bb\	.
8e/	4c\	8ccc\	.
8g/J	.	8eee\J	.
=410	=410	=410	=410
4c\	8f/L	8ddd\L	<
.	8g/	8ccc#\	.
4c\	8f/	8ddd\	.
.	8g/J	8gg\J	.
*v	*v	*	*
*clefF4	*	*
*^	*	*
8e\L	2r	8cccn\L	f
8d#\	.	8bb\	.
8e\	.	8ccc\	.
8c\J	.	8eee\J	.
*v	*v	*	*
=411	=411	=411
8dn\L	8bb\L	.
8c#\	8aa#\	.
8d\	8bb\	.
8B\J	8ddd\J	.
8cn\L	8aan\L	.
8B\	8gg#\	.
8c\	8aa\	.
8A\J	8ccc\J	.
=412	=412	=412
8B\L	8ggn\L	.
8A#\	8ff#\	.
8B\	8gg\	.
8G\J	8bb\J	.
8An\L	8ffn\L	.
8G#\	8ee\	.
8A\	8ff\	.
8F\J	8aa\J	.
=413	=413	=413
8Gn\L	8ee\L	.
8F#\	8dd#\	.
8G\	8ee\	.
8E\J	8ggn\J	.
8Fn\L	8ddn\L	.
8E\	8cc#\	.
8F\	8dd\	.
8D\J	8ff\J	.
=414	=414	=414
8E\L	8ccn\L	.
8D#\	8b\	.
8E\	8cc\	.
8C\J	8ee\J	.
8c\L	8ee\L	.
8B\	8dd#\	.
8c\	8ee\	.
8e\J	8cc\J	.
=415	=415	=415
8B\L	8ddn\L	.
8A#\	8cc#\	.
8B\	8dd\	.
8d\J	8b\J	.
8An\L	8ccn\L	.
8G#\	8b\	.
8A\	8cc\	.
8c\J	8a\J	.
=416	=416	=416
8Gn\L	8b/L	.
8F#\	8a#/	.
8G\	8b/	.
8B\J	8g/J	.
8Fn\L	8an/L	.
8E\	8g#/	.
8F\	8a/	.
8A\J	8f/J	.
=417	=417	=417
8E\L	8gn/L	.
8D#\	8f#/	.
8E\	8g/	.
8G\J	8e/J	.
8Dn\L	8fn/L	.
8C#\	8e/	.
8D\	8f/	.
8F\J	8d/J	.
=418	=418	=418
4Cn/	8e/L	ff
.	8c/	.
8r	8G/	.
(8C/	8e/J	.
4GG/)	8d/L	.
.	8B/	.
8r	8G/	.
(8GG/	8d/J	.
=419	=419	=419
4D/)	8f/L	.
.	8d/	.
8r	8A/	.
(8D/	8f/J	.
4AA/)	8e/L	.
.	8c/	.
8r	8A/	.
(8AA/	8e/J	.
=420	=420	=420
4F\)	8a/L	.
.	8f/	.
8r	8c/	.
(8F\	8a/J	.
4C\)	8g/L	.
.	8e/	.
8r	8c/	.
(8C\	8cc/J	.
=421	=421	=421
4G\)	8d/L	.
.	8cc/	.
8r	8g/	.
(8G\	8d/J	.
4GG/)	8b/L	.
.	8g/	.
8r	8d/	.
(8GG/	8b/J	.
=422	=422	=422
4C/)	8ee\L	.
.	8cc\	.
8r	8g\	.
(8c\	8ee\J	.
4G\)	8g\L	.
.	8dd\	.
8r	8b\	.
(8G\	8g\J	.
=423	=423	=423
4D\)	8ff\L	.
.	8dd\	.
8r	8a\	.
(8d\	8ff\J	.
4A\)	8a\L	.
.	8ee\	.
8r	8cc\	.
(8A\	8a\J	.
=424	=424	=424
4F\)	8aa\L	.
.	8ff\	.
8r	8cc\	.
(8f\	8aa\J	.
4F\)	8cc\L	.
.	8aa\	.
8r	8ff\	.
(8f\	8cc\J	.
=425	=425	=425
4F\)	8aa\L	.
.	8ff\	.
8r	8cc\	.
(8f\	8aa\J	.
4F\)	8cc\L	.
.	8aa\	.
8r	8ff\	.
(8F\	8cc\J	.
=426	=426	=426
4FF/)	4r	f
8A\L	4ccc''\	p
8c\J	.	.
8A\L	4.ccc\	.
8c\	.	.
8A\	.	.
8c\J	8aa\	.
=427	=427	=427
8B-\L	4gg\	.
8c\	.	.
8B-\	4cc\	.
8c\J	.	.
8A\L	4ff\	.
8c\	.	.
8A\	4aa\	.
8c\J	.	.
=428	=428	=428
8A\L	4r	.
8c\	.	.
8A\	8ccc\L	.
8c\J	8bbn\J	.
8A\L	8ccc\L	.
8c\	8bb\	.
8A\	8ccc\	.
8c\J	8aa\J	.
=429	=429	=429
8B-\L	8gg\L	.
8c\	8ff#\	.
8B-\	8gg\	.
8c\J	8cc\J	.
8A\L	8ffn\L	.
8c\	8ee\	.
8A\	8ff\	.
8c\J	8aa\J	.
=430	=430	=430
4GG/	4r	f
4Bn\	4ff''\ 4fff''\	p
4d\	4.ff\ (4.fff\	.
4B\	.	.
.	8dd\ 8ddd\	pp
=431	=431	=431
(4c\	4ee\ 4eee\	.
4e\	4cc\ 4ccc\	.
4d\	4b\ 4bb\	.
4B\)	4dd\ 4ddd\)	.
=432	=432	=432
4G\	4r	.
4B\	4ff''\ 4fff''\	.
4d\	4.ff\ (4.fff\	.
4B\	.	.
.	8dd\ 8ddd\	.
=433	=433	=433
4c\	4ee\ 4eee\	.
4e\	4cc\ 4ccc\	.
4d\	4b\ 4bb\	.
4B\	4dd\ 4ddd\	.
=434	=434	=434
4A\	4cc\ 4ccc\	.
4c\	4a\ 4aa\	.
4B\	4g\ 4gg\)	.
4G\	4b\ (4bb\	.
=435	=435	=435
4F\	4a\ 4aa\	.
4A\	4f\ 4ff\	.
4G\	4e\ 4ee\	.
4E\	4g\ 4gg\	.
=436	=436	=436
4D\	4f/ 4ff/	.
4F\	4d/ 4dd/	.
4C\	4e/ 4ee/	.
4E\	4c/ 4cc/	.
=437	=437	=437
4BB/	4d/ 4dd/	.
4D/	4B/ 4b/	.
4AA/	4c/ 4cc/	.
4C/	4A/ 4a/	.
=438	=438	=438
4GG/	4B/ 4b/	.
4BB/	4G/ 4g/	.
4FF/	4A/ 4a/	.
*	*clefF4	*clefF4
4AA/	4F\ 4f\	.
=439	=439	=439
(4EE/	4G\ 4g\	.
4GG/	4E\ 4e\	.
4GGG/ 4DD/	4F\ 4f\	.
4GG/)	4BB\ 4B\)	ff
=440	=440	=440
4AAA-/ 4AA-/	4C\ 4E-\ 4c\	.
4r	4r	.
4A-''\ 4c''\ 4e-''\	2r	.
4r	.	.
*	*clefG2	*clefG2
=441	=441	=441
1A- 1c 1e-	6r	.
.	(6cc\	.
.	6ee-\	.
.	6aa-\	.
.	6ccc\	.
.	6eee-\)	.
=442	=442	=442
4EE-/	(6ddd-\	p
.	6bb-\	.
4r	.	.
.	6gg\	.
4E-\ 4G\ 4B-\ 4d-\	6dd-\	.
.	6b-\	.
4r	.	.
.	6g\)	.
=443	=443	=443
4EEn/	(6ddd-\	.
.	6bb-\	.
4r	.	.
.	6gg\	.
4En\ 4G\ 4B-\ 4d-\	6dd-\	.
.	6b-\	.
4r	.	.
.	6g\)	.
=444	=444	=444
4FF/	1r	ff
4r	.	.
4F''\ 4A-''\ 4c''\	.	.
4r	.	.
=445	=445	=445
1F 1A- 1c	6r	ff
.	(6a-\	.
.	6cc\	.
.	6ff\	.
.	6aa-\	.
.	6ccc\)	.
=446	=446	=446
4CC/	(6bb-\	p
.	6gg\	.
4r	.	.
.	6een\	.
4C\ 4E\ 4G\ 4B-\	6b-/	.
.	6g/	.
4r	.	.
.	6en/)	.
=447	=447	=447
4CC/	(6bb-\	.
.	6gg\	.
4r	.	.
.	6ee\	.
4C\ 4E\ 4G\ 4B-\	6b-/	.
.	6g/	.
4r	.	.
.	6e/)	.
=448	=448	=448
4DD-/	1r	ff
4r	.	.
4D-''\ 4F''\ 4A-''\	.	.
4r	.	.
=449	=449	=449
1D- 1F 1A-	6r	.
.	(6f/	ff
.	6a-/	.
.	6dd-\	.
.	6ff\	.
.	6aa-\)	.
=450	=450	=450
4AAA-/	(6gg-\	p
.	6ee-\	.
4r	.	.
.	6cc\	.
4AA-\ 4C\ 4E-\ 4G-\	6g-/	.
.	6e-/	.
4r	.	.
.	6c/)	.
=451	=451	=451
4AAAn/	(6gg-\	.
.	6ee-\	.
4r	.	.
.	6cc\	.
4AAn\ 4C\ 4E-\ 4G-\	6g-/	.
.	6e-/	.
4r	.	.
.	6c/)	.
=452	=452	=452
4BBB-/	6r	.
.	(6F/	pp
4r	.	.
.	6B-/	.
4BB-\ 4D-\ 4F\	6d-/	.
.	6f/	.
4r	.	.
.	6b-/	.
=453	=453	=453
1BB- 1D- 1F	6dd-\	.
.	6ff\	.
.	6bb-\	.
.	6ddd-\	.
.	6fff\	.
.	6ff\)	.
=454	=454	=454
4AAA-/	6r	pp
.	6F/	.
4r	.	.
.	6A-/	.
4AA-\ 4C\ 4F\	6c/	.
.	6f/	.
4r	.	.
.	6a-/	.
=455	=455	=455
1AA- 1C 1F	6cc\	.
.	6ff\	.
.	6aa-\	.
.	6ccc\	.
.	6fff\	.
.	6ff\	.
=456	=456	=456
4GGG/	6r	pp
.	6F/	.
4r	.	.
.	6Bn/	.
4GG\ 4BBn\ 4D\ 4F\	6d/	.
.	6f/	.
4r	.	.
.	6bn/	.
=457	=457	=457
1GG 1BB 1D 1F	6dd\	.
.	6ff\	.
.	6bbn\	.
.	6ddd\	.
.	6fff\	.
.	6ff\	.
=458	=458	=458
4AAA-/	6r	pp
.	6E-/	.
4r	.	.
.	6A-/	.
4AA-\ 4C\ 4E-\	6c/	.
.	6e-/	.
4r	.	.
.	6a-/	.
=459	=459	=459
1AA- 1C 1E-	6cc\	.
.	6ee-\	.
.	6aa-\	.
.	6ccc\	.
.	6eee-\	.
.	6ee-\	.
=460	=460	=460
6AAAn/	2r	ppp
6CC/	.	.
6EE-/	.	.
*	*clefF4	*clefF4
6FF#/	6r	.
6r	6AAn/	.
6r	6C/	.
=461	=461	=461
1r	6E-\	.
.	6F#\	.
.	6An\	.
*	*clefG2	*clefG2
.	6c/	.
.	6e-/	.
.	6f#/	.
=462	=462	=462
1r	6an\	.
.	6cc\	.
.	6ee-\	.
.	6ff#\	.
.	6aan\	.
.	6ccc\	.
=463	=463	=463
1r	(6eee-\	.
.	6ccc\	.
.	6aa\)	.
.	(6fff#\	.
.	6eee-\	.
.	6ccc\)	.
=464	=464	=464
4GGG/ 4CC/ 4EEn/ 4GG/	8r	.
.	8gg\ (8ggg\L	pp
4r	8ff\ 8fff\	.
.	8een\ 8eeen\J	.
2r	8dd\ 8ddd\L	.
.	8cc\ 8ccc\	.
.	8bn\ 8bbn\	.
.	8an\ 8aan\J	.
=465	=465	=465
1r	4g\ 4gg\	.
.	8f/ 8ff/L	.
.	8e/ 8ee/J	.
.	8d/ 8dd/L	.
.	8c/ 8cc/	.
.	8B/ 8b/	.
.	8A/ 8a/J)	.
=466	=466	=466
8r	1G 1c 1e [1g	.
8GGG/ (8GG/L	.	.
8AAA/ 8AA/	.	.
8BBB/ 8BB/J	.	.
8CC/ 8C/L	.	.
8DD/ 8D/	.	.
8EE/ 8E/	.	.
8FF/ 8F/J	.	.
=467	=467	=467
4GG\ 4G\	2B/ 2d/ 2g/]	.
8AA\ 8A\L	.	.
8BB\ 8B\J	.	.
8C\ 8c\L	2dd\ 2ff\	.
8D\ 8d\	.	.
8E\ 8e\	.	.
8F\ 8f\J	.	.
=468	=468	=468
4G\ 4g\)	8cc''\ 8ee''\L	.
.	8gg\ 8ggg\	pp
4r	8ff\ 8fff\	.
.	8ee\ 8eee\J	.
2r	8dd\ 8ddd\L	.
.	8cc\ 8ccc\	.
.	8b\ 8bb\	.
.	8a\ 8aa\J	.
=469	=469	=469
1r	4g\ 4gg\	.
.	8f/ 8ff/L	.
.	8e/ 8ee/J	.
.	8d/ 8dd/L	.
.	8c/ 8cc/	.
.	8B/ 8b/	.
.	8A/ 8a/J	.
=470	=470	=470
8r	1G 1c 1e [1g	.
8GGG/ (8GG/L	.	.
8AAA/ 8AA/	.	.
8BBB/ 8BB/J	.	.
8CC/ 8C/L	.	.
8DD/ 8D/	.	.
8EE/ 8E/	.	.
8FF/ 8F/J	.	.
=471	=471	=471
4GG\ 4G\	2B/ 2d/ 2g/]	.
8AA\ 8A\L	.	.
8BB\ 8B\J	.	.
8C\ 8c\L	2dd\ 2ff\	.
8D\ 8d\	.	.
8E\ 8e\	.	.
8F\ 8f\J	.	.
=472	=472	=472
4G\ 4g\)	8cc''\ 8ee''\L	.
.	8gg\ 8ggg\	pp
4r	8ff\ 8fff\	.
.	8ee\ 8eee\J	.
2r	8dd\ 8ddd\L	.
.	8cc\ 8ccc\	.
.	8b\ 8bb\	.
.	8a\ 8aa\J	.
=473	=473	=473
1r	4g\ 4gg\	.
.	8f/ 8ff/L	.
.	8e/ 8ee/J	.
.	8d/ 8dd/L	.
.	8c/ 8cc/	.
.	8B/ 8b/	.
.	8A/ 8a/J	.
=474	=474	=474
8r	8G/ 8g/L	<
8G\L	8A/	.
8F\	8B/	.
8E\J	8c/J	.
8D/L	8d/L	.
8C/	8e/	.
8BB/	8f/	.
8AA/J	8f#/J	.
=475	=475	=475
4GG/	8g\L	.
.	8a\	.
8FF/L	8b\	.
8EE/J	8cc\J	.
8DD/L	8dd\L	.
8CC/	8ee\	.
8AAA/	8ff\	.
8AAA/J	8ff#\J	.
=476	=476	=476
8GGG/L	[1gg	f
8AAA/	.	.
8BBB/	.	.
8CC/J	.	.
8DD/L	.	.
8EE/	.	.
8FF/	.	.
8FF#/J	.	.
=477	=477	=477
8GG/L	1gg_	.
8AA/	.	.
8BB/	.	.
8C/J	.	.
8D\L	.	.
8E\	.	.
8F\	.	.
8F#\J	.	.
=478	=478	=478
8G\L	1gg_	>
8A\	.	.
8B\	.	.
8c\J	.	.
8d\L	.	.
8e\	.	.
8f\	.	.
8f#\J	.	.
*clefG2	*	*
=479	=479	=479
8g\L	1gg_	.
8a\	.	.
8b\	.	.
8cc\J	.	.
8dd\L	.	.
8ee\	.	.
8ff\	.	.
8ee\J	.	.
=480	=480	=480
4ff\	1gg_	p
4r	.	.
8r	.	.
(8ee\L	.	.
8ff\	.	.
8ee\J	.	.
=481	=481	=481
4ff'\)	1gg_	.
4r	.	.
8r	.	.
(8ee\L	.	.
8ff\	.	.
8ee\J	.	.
=482	=482	=482
4ff'\)	1gg_	.
4r	.	.
2r	.	.
=483	=483	=483
1r	1gg_	.
*clefF4	*	*
=484	=484	=484
*	*^	*
(6C\	2r	1gg_	pp
6G\	.	.	.
6c\)	.	.	.
(6e\	2ggg/	.	.
6c\	.	.	.
6e\)	.	.	.
=485	=485	=485	=485
6g\	2.ggg/	1gg_	.
6e\	.	.	.
6g\	.	.	.
6e\	.	.	.
6c\	.	.	.
.	4eee/	.	.
6e\	.	.	.
=486	=486	=486	=486
6f\	2ddd/	2gg\]	.
6d\	.	.	.
6f\	.	.	.
6d\	2gg/	[2gg\	.
6B\	.	.	.
6d\	.	.	.
=487	=487	=487	=487
6e\	(2ccc/	1gg]	.
6c\	.	.	.
6G\	.	.	.
6c\	4eee/)	.	.
6G\	.	.	.
.	4r	.	.
6E\	.	.	.
=488	=488	=488	=488
6C\	2r	[1gg	.
6G\	.	.	.
6c\	.	.	.
6e\	2ggg/	.	.
6c\	.	.	.
6e\	.	.	.
=489	=489	=489	=489
6g\	2.ggg/	1gg_	.
6e\	.	.	.
6g\	.	.	.
6e\	.	.	.
6c\	.	.	.
.	4eee/	.	.
6e\	.	.	.
=490	=490	=490	=490
6f\	2ddd/	2gg\]	.
6d\	.	.	.
6f\	.	.	.
6B\	2gg/	[2gg\	.
6d\	.	.	.
6B\	.	.	.
=491	=491	=491	=491
6c\	4ccc/	1gg]	.
6A\	.	.	.
.	4r	.	.
6G\	.	.	.
6F\	2r	.	.
6E\	.	.	.
6D\	.	.	.
=492	=492	=492	=492
6C\	2r	[1gg	pp
6G\	.	.	.
6c\	.	.	.
6e-\	2ggg/	.	.
6c\	.	.	.
6e-\	.	.	.
=493	=493	=493	=493
6g\	2.ggg/	1gg_	.
6e-\	.	.	.
6g\	.	.	.
6e-\	.	.	.
6c\	.	.	.
.	4eee-/	.	.
6e-\	.	.	.
=494	=494	=494	=494
6f\	2ddd/	2gg\]	.
6d\	.	.	.
6f\	.	.	.
6d\	2gg/	[2gg\	.
6B\	.	.	.
6d\	.	.	.
=495	=495	=495	=495
*^	*	*	*
6e-\	2r	4ccc/	1gg]	.
6c\	.	.	.	.
.	.	4r	.	.
6e-\	.	.	.	.
4E-\	6B-/	2r	.	.
.	6d-/	.	.	.
4r	.	.	.	.
.	6B-/	.	.	.
*v	*v	*	*	*
=496	=496	=496	=496
6AA-\	2r	2aa-\	pp
6E-\	.	.	.
6A-\	.	.	.
6c\	2eee-/	[2ee-\	.
6A-\	.	.	.
6c\	.	.	.
=497	=497	=497	=497
6e-\	2.eee-/	1ee-_	.
6c\	.	.	.
6e-\	.	.	.
6c\	.	.	.
6A-\	.	.	.
.	4ccc/	.	.
6c\	.	.	.
=498	=498	=498	=498
6d-\	2bb-/	2ee-\]	.
6B-'\	.	.	.
6d-\	.	.	.
6B-\	2ee-/	(2ee-\	.
6G\	.	.	.
6B-\	.	.	.
=499	=499	=499	=499
*^	*	*	*
6c\	2r	4aa-/	2ee-\)	.
6A-\	.	.	.	.
.	.	4r	.	.
6c\	.	.	.	.
4C\	6G/	2r	2een\	.
.	6B-/	.	.	.
4r	.	.	.	.
.	6G/	.	.	.
*v	*v	*	*	*
=500	=500	=500	=500
6FF\	2r	2ff\	pp
6C\	.	.	.
6F\	.	.	.
6A-\	2ccc/	[2cc\	.
6F\	.	.	.
6A-\	.	.	.
=501	=501	=501	=501
6c\	2.ccc/	1cc_	.
6A-\	.	.	.
6c\	.	.	.
6A-\	.	.	.
6F\	.	.	.
.	4aa-/	.	.
6A-\	.	.	.
=502	=502	=502	=502
6B-\	2gg/	2cc\]	.
6G\	.	.	.
6B-\	.	.	.
6G\	2cc/	[2cc\	.
6E\	.	.	.
6G\	.	.	.
=503	=503	=503	=503
6A-\	2.ff/	1cc_	.
6F\	.	.	.
6A-\	.	.	.
6F\	.	.	.
6C\	.	.	.
.	4aa-/	.	.
6F\	.	.	.
=504	=504	=504	=504
6B-\	2gg/	2cc\]	.
6G\	.	.	.
6B-\	.	.	.
6E\	2cc/	[2cc\	.
6G\	.	.	.
6E\	.	.	.
=505	=505	=505	=505
6F\	2ff/	1cc]	.
6A-\	.	.	.
6F\	.	.	.
6G\	2ee-/	.	.
6c\	.	.	.
6G\	.	.	.
*	*v	*v	*
=506	=506	=506
4A-\ 4f\	[1cc	.
4r	.	.
4r	.	.
4A-\ 4f\	.	.
=507	=507	=507
4A-\ 4f\	1cc_	.
4r	.	.
4r	.	.
4A-\ 4f\	.	.
=508	=508	=508
4A-\ 4f#\	1cc_	.
4r	.	.
4r	.	.
4A-\ 4f#\	.	.
=509	=509	=509
4A-\ 4f#\	1cc]	.
4r	.	.
4r	.	.
4A-\ 4f#\	.	.
=510	=510	=510
4G\ 4g\	[1dd	<
*clefG2	*	*
4g/ 4cc/	.	.
4g/ 4cc/	.	.
4g/ 4cc/	.	.
=511	=511	=511
4g/ 4cc/	1dd_	.
4g/ 4cc/	.	.
4g/ 4cc/	.	.
4g/ 4cc/	.	.
=512	=512	=512
*	*^	*
[1g [1b	4r	1dd_	.
.	4gg/	.	.
.	4gg/	.	.
.	4gg/	.	.
=513	=513	=513	=513
1g] 1b]	4gg/	1dd]	.
.	4gg/	.	.
.	4gg/	.	.
.	4gg/	.	.
*clefF4	*	*	*
=514	=514	=514	=514
4CC/	4r	4cc\ 4ee\	ff
4C'\ 4E'\ 4G'\ 4c'\	4ggg/	4gg\	.
[2C\ 2E\ 2G\ 2c\	4.ggg/	[2gg\	.
.	8eee/	.	.
=515	=515	=515	=515
2C\] 2F\ 2G\ 2B\	4ddd/	4gg\]	.
.	4gg/	2.gg\	.
2C\ 2E\ 2G\ 2c\	4ccc/	.	.
.	4eee/	.	.
=516	=516	=516	=516
4CC/	4r	4r	.
4C'\ 4E'\ 4G'\ 4c'\	4gg/	4g\	p
[2C\ 2E\ 2G\ 2c\	4.gg/	[2g\	.
.	8ee/	.	.
=517	=517	=517	=517
2C\_ 2F\ 2G\ 2B\	4dd/	4g\]	.
.	4g/	2.g\	.
2C\] 2E\ 2G\ 2c\	4cc/	.	.
.	4ee/	.	.
*	*v	*v	*
=518	=518	=518
4CC/	4r	.
4C'\ 4E'\ 4G'\ 4c'\	8ggg\L	ff
.	8fff#\J	.
[2C\ 2E\ 2G\ 2c\	8ggg\L	.
.	8fff#\	.
.	8ggg\	.
.	8eee\J	.
=519	=519	=519
2C\_ 2F\ 2G\ 2B\	8ddd\L	.
.	8ccc#\	.
.	8ddd\	.
.	8gg\J	.
2C\] 2E\ 2G\ 2c\	8cccn\L	.
.	8bb\	.
.	8ccc\	.
.	8eee\J	.
=520	=520	=520
4CC/	4r	.
4C'\ 4E'\ 4G'\ 4c'\	8gg\L	p
.	8ff#\J	.
[2C\ 2E\ 2G\ 2c\	8gg\L	.
.	8ff#\	.
.	8gg\	.
.	8ee\J	.
=521	=521	=521
2C\_ 2F\ 2G\ 2B\	8dd\L	.
.	8cc#\	.
.	8dd\	.
.	8g\J	.
2C\] 2E\ 2G\ 2c\	8ccn\L	.
.	8b\	.
.	8cc\	.
.	8ee\J	.
=522	=522	=522
4C\ 4F\	8d/L	.
.	8c#/	.
4C\ 4F\	8d/	.
.	8G/J	.
4C\ 4E\	8cn/L	.
.	8B/	.
4C\ 4E\	8c/	.
.	8e/J	.
=523	=523	=523
4C\ 4F\	8d/L	.
.	8c#/	.
4C\ 4F\	8d/	.
.	8G/J	.
4C\ 4E\	8cn/L	.
.	8B/	.
4C\ 4E\	8c/	.
.	8e/J	.
=524	=524	=524
4C\ 4F\	8d/L	<
.	8c#/	.
4C\ 4F\ 4G\	8d/	.
.	8B/J	.
4C\ 4D\ 4F\ 4G\ 4B\	8f/L	.
.	8e/	.
4C\ 4D\ 4F\ 4G\ 4B\	8f/	.
.	8d/J	.
=525	=525	=525
4C\ 4D\ 4F\ 4G\ 4B\	8b/L	.
.	8a#/	.
4C\ 4D\ 4F\ 4G\ 4B\	8b/	.
.	8f/J	.
4C\ 4D\ 4F\ 4G\ 4B\	8dd\L	.
.	8cc#\	.
4C\ 4D\ 4F\ 4G\ 4B\	8dd\	.
.	8b\J	.
=526	=526	=526
4C\ 4D\ 4F\ 4G\ 4B\	8ff\L	f
.	8ee\	.
4C\ 4D\ 4F\ 4G\ 4B\	8ff\	.
.	8dd\J	.
4C\ 4D\ 4F\ 4G\ 4B\	8bb\L	.
.	8aa#\	.
4C\ 4D\ 4F\ 4G\ 4B\	8bb\	.
.	8ff\J	.
=527	=527	=527
4C\ 4D\ 4F\ 4G\ 4B\	8ddd\L	.
.	8ccc#\	.
4C\ 4D\ 4F\ 4G\ 4B\	8ddd\	.
.	8bb\J	.
4C\ 4D\ 4F\ 4G\ 4B\	8fff\L	.
.	8eee\	.
4C\ 4D\ 4F\ 4G\ 4B\	8fff\	.
.	8bb\J	.
=528	=528	=528
4CC/ 4C/	4cccn\	ff
4E'\ 4G'\	4e'/ 4g'/	.
4C'\ 4E'\	4c'/ 4e'/	.
4G'\ 4c'\	4g'/ 4cc'/	.
=529	=529	=529
4E'\ 4G'\	4e'/ 4g'/	.
4c'\ 4e'\	4cc'\ 4ee'\	.
4G'\ 4c'\	4g'\ 4cc'\	.
*clefG2	*	*
4e'/ 4g'/	4ee'\ 4gg'\	.
=530	=530	=530
4c'/ 4e'/	4cc'\ 4ee'\	.
4g'/ 4cc'/	4gg'\ 4ccc'\	.
4e'/ 4g'/	4ee'\ 4gg'\	.
4cc'\ 4ee'\	4ccc'\ 4eee'\	.
=531	=531	=531
4g'\ 4cc'\	4gg'\ 4ccc'\	.
4ee'\ 4gg'\	4eee'\ 4ggg'\	.
4cc'\ 4ee'\	4ccc'\ 4eee'\	.
4ee'\ 4gg'\	4eee'\ 4ggg'\	.
=532	=532	=532
4cc\ 4ee\	4ccc\ 4eee\	.
4r	4r	.
2r	2r	.
=533	=533	=533
4e/ 4g/	4ee\ 4gg\	>
4r	4r	.
2r	2r	.
=534	=534	=534
4c/ 4e/	4cc\ 4ee\	.
4r	4r	.
2r	2r	.
*clefF4	*	*
=535	=535	=535
4E\ 4G\	4e/ 4g/	.
4r	4r	.
2r	2r	.
=536	=536	=536
4C/ 4E/	4c/ 4e/	.
4r	4r	.
2r	2r	.
*clefG2	*	*
=537	=537	=537
4e/ 4g/	4ee\ 4gg\	.
4r	4r	.
4e/ 4g/	4ee\ 4gg\	.
4r	4r	.
=538	=538	=538
4c/ 4e/	4cc\ 4ee\	.
4r	4r	.
2r	2r	.
*clefF4	*	*
=539	=539	=539
4CC'/ 4EE'/ 4GG'/ 4C'/	4gg'\ 4ccc'\ 4eee'\ 4ggg'\	ff
4r	4r	.
4CC'/ 4EE'/ 4GG'/ 4C'/	4gg'\ 4ccc'\ 4eee'\ 4ggg'\	.
4r	4r	.
=540	=540	=540
4CC'/ 4EE'/ 4GG'/ 4C'/	4ee'\ 4gg'\ 4ccc'\ 4eee'\	.
4r	4r	.
2r	2r	.
=541	=541	=541
4CC'/ 4EE'/ 4GG'/ 4C'/	4e'/ 4g'/ 4cc'/ 4ee'/	f
4r	4r	.
2r	2r	.
=542	=542	=542
4CC'/ 4EE'/ 4GG'/ 4C'/	4c'/ 4e'/ 4g'/ 4cc'/	f
4r	4r	.
2r	2r	.
=543||	=543||	=543||
!!!OMD: Prestissimo
4CC/ 4C/	4c/	f
*clefG2	*	*
8e/L	4ggg\	p
8g/J	.	.
8e/L	(4.ggg\	.
8g/	.	.
8e/	.	.
8g/J	8eee\	.
=544	=544	=544
8f/L	4ddd\	.
8g/	.	.
8f/	4gg\	.
8g/J	.	.
8e/L	4ccc\	.
8g/	.	.
8e/	4eee\)	.
8g/J	.	.
=545	=545	=545
8e/L	4r	.
8g/	.	.
8e/	4ggg''\	.
8g/J	.	.
8e/L	(4.ggg\	.
8g/	.	.
8e/	.	.
8g/J	8eee\	.
=546	=546	=546
8f/L	4ddd\	.
8g/	.	.
8f/	4gg\	.
8g/J	.	.
8e/L	4ccc\)	.
8g/	.	.
8e/	4r	.
8g/J	.	.
=547	=547	=547
*^	*	*
8e/L	4c\	8ggg\L	.
8g/	.	8fff#\	.
8e/	4c\	8ggg\	.
8g/J	.	8fff#\J	.
8e/L	4c\	8ggg\L	.
8g/	.	8fff#\	.
8e/	4c\	8ggg\	.
8g/J	.	8eee\J	.
=548	=548	=548	=548
8f/L	4c\	8ddd\L	.
8g/	.	8ccc#\	.
8f/	4c\	8ddd\	.
8g/J	.	8gg\J	.
8e/L	4c\	8cccn\L	.
8g/	.	8bb\	.
8e/	4c\	8ccc\	.
8g/J	.	8eee\J	.
=549	=549	=549	=549
8e/L	4c\	8ggg\L	.
8g/	.	8fff#\	.
8e/	4c\	8ggg\	.
8g/J	.	8fff#\J	.
8e/L	4c\	8ggg\L	.
8g/	.	8fff#\	.
8e/	4c\	8ggg\	.
8g/J	.	8eee\J	.
=550	=550	=550	=550
8f/L	4c\	8ddd\L	.
8g/	.	8ccc#\	.
8f/	4c\	8ddd\	.
8g/J	.	8gg\J	.
8e/L	4c\	8cccn\L	.
8g/	.	8bb\	.
8e/	4c\	8ccc\	.
8g/J	.	8eee\J	.
=551	=551	=551	=551
4c\	8f/L	8ddd\L	<
.	8g/	8ccc#\	.
4c\	8f/	8ddd\	.
.	8g/J	8gg\J	.
*v	*v	*	*
*clefF4	*	*
*^	*	*
8e\L	2r	8cccn\L	f
8d#\	.	8bb\	.
8e\	.	8ccc\	.
8c\J	.	8eee\J	.
*v	*v	*	*
=552	=552	=552
8dn\L	8bb\L	.
8c#\	8aa#\	.
8d\	8bb\	.
8B\J	8ddd\J	.
8cn\L	8aan\L	.
8B\	8gg#\	.
8c\	8aa\	.
8A\J	8ccc\J	.
=553	=553	=553
8B\L	8ggn\L	.
8A#\	8ff#\	.
8B\	8gg\	.
8G\J	8bb\J	.
8An\L	8ffn\L	.
8G#\	8ee\	.
8A\	8ff\	.
8F\J	8aa\J	.
=554	=554	=554
8Gn\L	8ee\L	.
8F#\	8dd#\	.
8G\	8ee\	.
8E\J	8ggn\J	.
8Fn\L	8ddn\L	.
8E\	8cc#\	.
8F\	8dd\	.
8D\J	8ff\J	.
=555	=555	=555
8E\L	8ccn\L	.
8D#\	8b\	.
8E\	8cc\	.
8C\J	8ee\J	.
8c\L	8ee\L	.
8B\	8dd#\	.
8c\	8ee\	.
8e\J	8cc\J	.
=556	=556	=556
8B\L	8ddn\L	.
8A#\	8cc#\	.
8B\	8dd\	.
8d\J	8b\J	.
8An\L	8ccn\L	.
8G#\	8b\	.
8A\	8cc\	.
8c\J	8a\J	.
=557	=557	=557
8Gn\L	8b/L	.
8F#\	8a#/	.
8G\	8b/	.
8B\J	8g/J	.
8Fn\L	8an/L	.
8E\	8g#/	.
8F\	8a/	.
8A\J	8f/J	.
=558	=558	=558
8E\L	8gn/L	.
8D#\	8f#/	.
8E\	8g/	.
8G\J	8e/J	.
8Dn\L	8fn/L	.
8C#\	8e/	.
8D\	8f/	.
8F\J	8d/J	.
=559	=559	=559
4Cn/	8e/L	ff
.	8c/	.
8r	8G/	.
(8C/	8e/J	.
4GG/)	8d/L	.
.	8B/	.
8r	8G/	.
(8GG/	8d/J	.
=560	=560	=560
4D/)	8f/L	.
.	8d/	.
8r	8A/	.
(8D/	8f/J	.
4AA/)	8e/L	.
.	8c/	.
8r	8A/	.
(8AA/	8e/J	.
=561	=561	=561
4F\)	8a/L	.
.	8f/	.
8r	8c/	.
(8F\	8a/J	.
4C\)	8g/L	.
.	8e/	.
8r	8c/	.
(8C\	8cc/J	.
=562	=562	=562
4G\)	8d/L	.
.	8cc/	.
8r	8g/	.
(8G\	8d/J	.
4GG/)	8b/L	.
.	8g/	.
8r	8d/	.
(8GG/	8b/J	.
=563	=563	=563
4C/)	8ee\L	.
.	8cc\	.
8r	8g\	.
(8c\	8ee\J	.
4G\)	8g\L	.
.	8dd\	.
8r	8b\	.
(8G\	8g\J	.
=564	=564	=564
4D\)	8ff\L	.
.	8dd\	.
8r	8a\	.
(8d\	8ff\J	.
4A\)	8a\L	.
.	8ee\	.
8r	8cc\	.
(8A\	8a\J	.
=565	=565	=565
4F\)	8aa\L	.
.	8ff\	.
8r	8cc\	.
(8f\	8aa\J	.
4F\)	8cc\L	.
.	8aa\	.
8r	8ff\	.
(8f\	8cc\J	.
=566	=566	=566
4F\)	8aa\L	.
.	8ff\	.
8r	8cc\	.
(8f\	8aa\J	.
4F\)	8cc\L	.
.	8aa\	.
8r	8ff\	.
(8F\	8cc\J	.
=567	=567	=567
4FF/)	4r	f
8A\L	4ccc''\	p
8c\J	.	.
8A\L	4.ccc\	.
8c\	.	.
8A\	.	.
8c\J	8aa\	.
=568	=568	=568
8B-\L	4gg\	.
8c\	.	.
8B-\	4cc\	.
8c\J	.	.
8A\L	4ff\	.
8c\	.	.
8A\	4aa\	.
8c\J	.	.
=569	=569	=569
8A\L	4r	.
8c\	.	.
8A\	8ccc\L	.
8c\J	8bbn\J	.
8A\L	8ccc\L	.
8c\	8bb\	.
8A\	8ccc\	.
8c\J	8aa\J	.
=570	=570	=570
8B-\L	8gg\L	.
8c\	8ff#\	.
8B-\	8gg\	.
8c\J	8cc\J	.
8A\L	8ffn\L	.
8c\	8ee\	.
8A\	8ff\	.
8c\J	8aa\J	.
=571	=571	=571
4GG/	4r	f
4Bn\	4ff''\ 4fff''\	p
4d\	4.ff\ (4.fff\	.
4B\	.	.
.	8dd\ 8ddd\	pp
=572	=572	=572
(4c\	4ee\ 4eee\	.
4e\	4cc\ 4ccc\	.
4d\	4b\ 4bb\	.
4B\)	4dd\ 4ddd\)	.
=573	=573	=573
4G\	4r	.
4B\	4ff''\ 4fff''\	.
4d\	4.ff\ (4.fff\	.
4B\	.	.
.	8dd\ 8ddd\	.
=574	=574	=574
4c\	4ee\ 4eee\	.
4e\	4cc\ 4ccc\	.
4d\	4b\ 4bb\	.
4B\	4dd\ 4ddd\	.
=575	=575	=575
4A\	4cc\ 4ccc\	.
4c\	4a\ 4aa\	.
4B\	4g\ 4gg\)	.
4G\	4b\ (4bb\	.
=576	=576	=576
4F\	4a\ 4aa\	.
4A\	4f\ 4ff\	.
4G\	4e\ 4ee\	.
4E\	4g\ 4gg\	.
=577	=577	=577
4D\	4f/ 4ff/	.
4F\	4d/ 4dd/	.
4C\	4e/ 4ee/	.
4E\	4c/ 4cc/	.
=578	=578	=578
4BB/	4d/ 4dd/	.
4D/	4B/ 4b/	.
4AA/	4c/ 4cc/	.
4C/	4A/ 4a/	.
=579	=579	=579
4GG/	4B/ 4b/	.
4BB/	4G/ 4g/	.
4FF/	4A/ 4a/	.
*	*clefF4	*clefF4
4AA/	4F\ 4f\	.
=580	=580	=580
(4EE/	4G\ 4g\	.
4GG/	4E\ 4e\	.
4GGG/ 4DD/	4F\ 4f\	.
4GG/)	4BB\ 4B\)	ff
=581	=581	=581
4AAA-/ 4AA-/	4C\ 4E-\ 4c\	.
4r	4r	.
4A-''\ 4c''\ 4e-''\	2r	.
4r	.	.
*	*clefG2	*clefG2
=582	=582	=582
1A- 1c 1e-	6r	.
.	(6cc\	.
.	6ee-\	.
.	6aa-\	.
.	6ccc\	.
.	6eee-\)	.
=583	=583	=583
4EE-/	(6ddd-\	p
.	6bb-\	.
4r	.	.
.	6gg\	.
4E-\ 4G\ 4B-\ 4d-\	6dd-\	.
.	6b-\	.
4r	.	.
.	6g\)	.
=584	=584	=584
4EEn/	(6ddd-\	.
.	6bb-\	.
4r	.	.
.	6gg\	.
4En\ 4G\ 4B-\ 4d-\	6dd-\	.
.	6b-\	.
4r	.	.
.	6g\)	.
=585	=585	=585
4FF/	1r	ff
4r	.	.
4F''\ 4A-''\ 4c''\	.	.
4r	.	.
=586	=586	=586
1F 1A- 1c	6r	ff
.	(6a-\	.
.	6cc\	.
.	6ff\	.
.	6aa-\	.
.	6ccc\)	.
=587	=587	=587
4CC/	(6bb-\	p
.	6gg\	.
4r	.	.
.	6een\	.
4C\ 4E\ 4G\ 4B-\	6b-/	.
.	6g/	.
4r	.	.
.	6en/)	.
=588	=588	=588
4CC/	(6bb-\	.
.	6gg\	.
4r	.	.
.	6ee\	.
4C\ 4E\ 4G\ 4B-\	6b-/	.
.	6g/	.
4r	.	.
.	6e/)	.
=589	=589	=589
4DD-/	1r	ff
4r	.	.
4D-''\ 4F''\ 4A-''\	.	.
4r	.	.
=590	=590	=590
1D- 1F 1A-	6r	.
.	(6f/	ff
.	6a-/	.
.	6dd-\	.
.	6ff\	.
.	6aa-\)	.
=591	=591	=591
4AAA-/	(6gg-\	p
.	6ee-\	.
4r	.	.
.	6cc\	.
4AA-\ 4C\ 4E-\ 4G-\	6g-/	.
.	6e-/	.
4r	.	.
.	6c/)	.
=592	=592	=592
4AAAn/	(6gg-\	.
.	6ee-\	.
4r	.	.
.	6cc\	.
4AAn\ 4C\ 4E-\ 4G-\	6g-/	.
.	6e-/	.
4r	.	.
.	6c/)	.
=593	=593	=593
4BBB-/	6r	.
.	(6F/	pp
4r	.	.
.	6B-/	.
4BB-\ 4D-\ 4F\	6d-/	.
.	6f/	.
4r	.	.
.	6b-/	.
=594	=594	=594
1BB- 1D- 1F	6dd-\	.
.	6ff\	.
.	6bb-\	.
.	6ddd-\	.
.	6fff\	.
.	6ff\)	.
=595	=595	=595
4AAA-/	6r	pp
.	6F/	.
4r	.	.
.	6A-/	.
4AA-\ 4C\ 4F\	6c/	.
.	6f/	.
4r	.	.
.	6a-/	.
=596	=596	=596
1AA- 1C 1F	6cc\	.
.	6ff\	.
.	6aa-\	.
.	6ccc\	.
.	6fff\	.
.	6ff\	.
=597	=597	=597
4GGG/	6r	pp
.	6F/	.
4r	.	.
.	6Bn/	.
4GG\ 4BBn\ 4D\ 4F\	6d/	.
.	6f/	.
4r	.	.
.	6bn/	.
=598	=598	=598
1GG 1BB 1D 1F	6dd\	.
.	6ff\	.
.	6bbn\	.
.	6ddd\	.
.	6fff\	.
.	6ff\	.
=599	=599	=599
4AAA-/	6r	pp
.	6E-/	.
4r	.	.
.	6A-/	.
4AA-\ 4C\ 4E-\	6c/	.
.	6e-/	.
4r	.	.
.	6a-/	.
=600	=600	=600
1AA- 1C 1E-	6cc\	.
.	6ee-\	.
.	6aa-\	.
.	6ccc\	.
.	6eee-\	.
.	6ee-\	.
=601	=601	=601
6AAAn/	2r	ppp
6CC/	.	.
6EE-/	.	.
*	*clefF4	*clefF4
6FF#/	6r	.
6r	6AAn/	.
6r	6C/	.
=602	=602	=602
1r	6E-\	.
.	6F#\	.
.	6An\	.
*	*clefG2	*clefG2
.	6c/	.
.	6e-/	.
.	6f#/	.
=603	=603	=603
1r	6an\	.
.	6cc\	.
.	6ee-\	.
.	6ff#\	.
.	6aan\	.
.	6ccc\	.
=604	=604	=604
1r	(6eee-\	.
.	6ccc\	.
.	6aa\)	.
.	(6fff#\	.
.	6eee-\	.
.	6ccc\)	.
=605	=605	=605
4GGG/ 4CC/ 4EEn/ 4GG/	8r	.
.	8gg\ (8ggg\L	pp
4r	8ff\ 8fff\	.
.	8een\ 8eeen\J	.
2r	8dd\ 8ddd\L	.
.	8cc\ 8ccc\	.
.	8bn\ 8bbn\	.
.	8an\ 8aan\J	.
=606	=606	=606
1r	4g\ 4gg\	.
.	8f/ 8ff/L	.
.	8e/ 8ee/J	.
.	8d/ 8dd/L	.
.	8c/ 8cc/	.
.	8B/ 8b/	.
.	8A/ 8a/J)	.
=607	=607	=607
8r	1G 1c 1e [1g	.
8GGG/ (8GG/L	.	.
8AAA/ 8AA/	.	.
8BBB/ 8BB/J	.	.
8CC/ 8C/L	.	.
8DD/ 8D/	.	.
8EE/ 8E/	.	.
8FF/ 8F/J	.	.
=608	=608	=608
4GG\ 4G\	2B/ 2d/ 2g/]	.
8AA\ 8A\L	.	.
8BB\ 8B\J	.	.
8C\ 8c\L	2dd\ 2ff\	.
8D\ 8d\	.	.
8E\ 8e\	.	.
8F\ 8f\J	.	.
=609	=609	=609
4G\ 4g\)	8cc''\ 8ee''\L	.
.	8gg\ 8ggg\	pp
4r	8ff\ 8fff\	.
.	8ee\ 8eee\J	.
2r	8dd\ 8ddd\L	.
.	8cc\ 8ccc\	.
.	8b\ 8bb\	.
.	8a\ 8aa\J	.
=610	=610	=610
1r	4g\ 4gg\	.
.	8f/ 8ff/L	.
.	8e/ 8ee/J	.
.	8d/ 8dd/L	.
.	8c/ 8cc/	.
.	8B/ 8b/	.
.	8A/ 8a/J	.
=611	=611	=611
8r	1G 1c 1e [1g	.
8GGG/ (8GG/L	.	.
8AAA/ 8AA/	.	.
8BBB/ 8BB/J	.	.
8CC/ 8C/L	.	.
8DD/ 8D/	.	.
8EE/ 8E/	.	.
8FF/ 8F/J	.	.
=612	=612	=612
4GG\ 4G\	2B/ 2d/ 2g/]	.
8AA\ 8A\L	.	.
8BB\ 8B\J	.	.
8C\ 8c\L	2dd\ 2ff\	.
8D\ 8d\	.	.
8E\ 8e\	.	.
8F\ 8f\J	.	.
=613	=613	=613
4G\ 4g\)	8cc''\ 8ee''\L	.
.	8gg\ 8ggg\	pp
4r	8ff\ 8fff\	.
.	8ee\ 8eee\J	.
2r	8dd\ 8ddd\L	.
.	8cc\ 8ccc\	.
.	8b\ 8bb\	.
.	8a\ 8aa\J	.
=614	=614	=614
1r	4g\ 4gg\	.
.	8f/ 8ff/L	.
.	8e/ 8ee/J	.
.	8d/ 8dd/L	.
.	8c/ 8cc/	.
.	8B/ 8b/	.
.	8A/ 8a/J	.
=615	=615	=615
8r	8G/ 8g/L	<
8G\L	8A/	.
8F\	8B/	.
8E\J	8c/J	.
8D/L	8d/L	.
8C/	8e/	.
8BB/	8f/	.
8AA/J	8f#/J	.
=616	=616	=616
4GG/	8g\L	.
.	8a\	.
8FF/L	8b\	.
8EE/J	8cc\J	.
8DD/L	8dd\L	.
8CC/	8ee\	.
8AAA/	8ff\	.
8AAA/J	8ff#\J	.
=617	=617	=617
8GGG/L	[1gg	f
8AAA/	.	.
8BBB/	.	.
8CC/J	.	.
8DD/L	.	.
8EE/	.	.
8FF/	.	.
8FF#/J	.	.
=618	=618	=618
8GG/L	1gg_	.
8AA/	.	.
8BB/	.	.
8C/J	.	.
8D\L	.	.
8E\	.	.
8F\	.	.
8F#\J	.	.
=619	=619	=619
8G\L	1gg_	>
8A\	.	.
8B\	.	.
8c\J	.	.
8d\L	.	.
8e\	.	.
8f\	.	.
8f#\J	.	.
*clefG2	*	*
=620	=620	=620
8g\L	1gg_	.
8a\	.	.
8b\	.	.
8cc\J	.	.
8dd\L	.	.
8ee\	.	.
8ff\	.	.
8ee\J	.	.
=621	=621	=621
4ff\	1gg_	p
4r	.	.
8r	.	.
(8ee\L	.	.
8ff\	.	.
8ee\J	.	.
=622	=622	=622
4ff'\)	1gg_	.
4r	.	.
8r	.	.
(8ee\L	.	.
8ff\	.	.
8ee\J	.	.
=623	=623	=623
4ff'\)	1gg_	.
4r	.	.
2r	.	.
=624	=624	=624
1r	1gg_	.
*clefF4	*	*
=625	=625	=625
*	*^	*
(6C\	2r	1gg_	pp
6G\	.	.	.
6c\)	.	.	.
(6e\	2ggg/	.	.
6c\	.	.	.
6e\)	.	.	.
=626	=626	=626	=626
6g\	2.ggg/	1gg_	.
6e\	.	.	.
6g\	.	.	.
6e\	.	.	.
6c\	.	.	.
.	4eee/	.	.
6e\	.	.	.
=627	=627	=627	=627
6f\	2ddd/	2gg\]	.
6d\	.	.	.
6f\	.	.	.
6d\	2gg/	[2gg\	.
6B\	.	.	.
6d\	.	.	.
=628	=628	=628	=628
6e\	(2ccc/	1gg]	.
6c\	.	.	.
6G\	.	.	.
6c\	4eee/)	.	.
6G\	.	.	.
.	4r	.	.
6E\	.	.	.
=629	=629	=629	=629
6C\	2r	[1gg	.
6G\	.	.	.
6c\	.	.	.
6e\	2ggg/	.	.
6c\	.	.	.
6e\	.	.	.
=630	=630	=630	=630
6g\	2.ggg/	1gg_	.
6e\	.	.	.
6g\	.	.	.
6e\	.	.	.
6c\	.	.	.
.	4eee/	.	.
6e\	.	.	.
=631	=631	=631	=631
6f\	2ddd/	2gg\]	.
6d\	.	.	.
6f\	.	.	.
6B\	2gg/	[2gg\	.
6d\	.	.	.
6B\	.	.	.
=632	=632	=632	=632
6c\	4ccc/	1gg]	.
6A\	.	.	.
.	4r	.	.
6G\	.	.	.
6F\	2r	.	.
6E\	.	.	.
6D\	.	.	.
=633	=633	=633	=633
6C\	2r	[1gg	pp
6G\	.	.	.
6c\	.	.	.
6e-\	2ggg/	.	.
6c\	.	.	.
6e-\	.	.	.
=634	=634	=634	=634
6g\	2.ggg/	1gg_	.
6e-\	.	.	.
6g\	.	.	.
6e-\	.	.	.
6c\	.	.	.
.	4eee-/	.	.
6e-\	.	.	.
=635	=635	=635	=635
6f\	2ddd/	2gg\]	.
6d\	.	.	.
6f\	.	.	.
6d\	2gg/	[2gg\	.
6B\	.	.	.
6d\	.	.	.
=636	=636	=636	=636
*^	*	*	*
6e-\	2r	4ccc/	1gg]	.
6c\	.	.	.	.
.	.	4r	.	.
6e-\	.	.	.	.
4E-\	6B-/	2r	.	.
.	6d-/	.	.	.
4r	.	.	.	.
.	6B-/	.	.	.
*v	*v	*	*	*
=637	=637	=637	=637
6AA-\	2r	2aa-\	pp
6E-\	.	.	.
6A-\	.	.	.
6c\	2eee-/	[2ee-\	.
6A-\	.	.	.
6c\	.	.	.
=638	=638	=638	=638
6e-\	2.eee-/	1ee-_	.
6c\	.	.	.
6e-\	.	.	.
6c\	.	.	.
6A-\	.	.	.
.	4ccc/	.	.
6c\	.	.	.
=639	=639	=639	=639
6d-\	2bb-/	2ee-\]	.
6B-'\	.	.	.
6d-\	.	.	.
6B-\	2ee-/	(2ee-\	.
6G\	.	.	.
6B-\	.	.	.
=640	=640	=640	=640
*^	*	*	*
6c\	2r	4aa-/	2ee-\)	.
6A-\	.	.	.	.
.	.	4r	.	.
6c\	.	.	.	.
4C\	6G/	2r	2een\	.
.	6B-/	.	.	.
4r	.	.	.	.
.	6G/	.	.	.
*v	*v	*	*	*
=641	=641	=641	=641
6FF\	2r	2ff\	pp
6C\	.	.	.
6F\	.	.	.
6A-\	2ccc/	[2cc\	.
6F\	.	.	.
6A-\	.	.	.
=642	=642	=642	=642
6c\	2.ccc/	1cc_	.
6A-\	.	.	.
6c\	.	.	.
6A-\	.	.	.
6F\	.	.	.
.	4aa-/	.	.
6A-\	.	.	.
=643	=643	=643	=643
6B-\	2gg/	2cc\]	.
6G\	.	.	.
6B-\	.	.	.
6G\	2cc/	[2cc\	.
6E\	.	.	.
6G\	.	.	.
=644	=644	=644	=644
6A-\	2.ff/	1cc_	.
6F\	.	.	.
6A-\	.	.	.
6F\	.	.	.
6C\	.	.	.
.	4aa-/	.	.
6F\	.	.	.
=645	=645	=645	=645
6B-\	2gg/	2cc\]	.
6G\	.	.	.
6B-\	.	.	.
6E\	2cc/	[2cc\	.
6G\	.	.	.
6E\	.	.	.
=646	=646	=646	=646
6F\	2ff/	1cc]	.
6A-\	.	.	.
6F\	.	.	.
6G\	2ee-/	.	.
6c\	.	.	.
6G\	.	.	.
*	*v	*v	*
=647	=647	=647
4A-\ 4f\	[1cc	.
4r	.	.
4r	.	.
4A-\ 4f\	.	.
=648	=648	=648
4A-\ 4f\	1cc_	.
4r	.	.
4r	.	.
4A-\ 4f\	.	.
=649	=649	=649
4A-\ 4f#\	1cc_	.
4r	.	.
4r	.	.
4A-\ 4f#\	.	.
=650	=650	=650
4A-\ 4f#\	1cc]	.
4r	.	.
4r	.	.
4A-\ 4f#\	.	.
=651	=651	=651
4G\ 4g\	[1dd	<
*clefG2	*	*
4g/ 4cc/	.	.
4g/ 4cc/	.	.
4g/ 4cc/	.	.
=652	=652	=652
4g/ 4cc/	1dd_	.
4g/ 4cc/	.	.
4g/ 4cc/	.	.
4g/ 4cc/	.	.
=653	=653	=653
*	*^	*
[1g [1b	4r	1dd_	.
.	4gg/	.	.
.	4gg/	.	.
.	4gg/	.	.
=654	=654	=654	=654
1g] 1b]	4gg/	1dd]	.
.	4gg/	.	.
.	4gg/	.	.
.	4gg/	.	.
*clefF4	*	*	*
=655	=655	=655	=655
4CC/	4r	4cc\ 4ee\	ff
4C'\ 4E'\ 4G'\ 4c'\	4ggg/	4gg\	.
[2C\ 2E\ 2G\ 2c\	4.ggg/	[2gg\	.
.	8eee/	.	.
=656	=656	=656	=656
2C\] 2F\ 2G\ 2B\	4ddd/	4gg\]	.
.	4gg/	2.gg\	.
2C\ 2E\ 2G\ 2c\	4ccc/	.	.
.	4eee/	.	.
=657	=657	=657	=657
4CC/	4r	4r	.
4C'\ 4E'\ 4G'\ 4c'\	4gg/	4g\	p
[2C\ 2E\ 2G\ 2c\	4.gg/	[2g\	.
.	8ee/	.	.
=658	=658	=658	=658
2C\_ 2F\ 2G\ 2B\	4dd/	4g\]	.
.	4g/	2.g\	.
2C\] 2E\ 2G\ 2c\	4cc/	.	.
.	4ee/	.	.
*	*v	*v	*
=659	=659	=659
4CC/	4r	.
4C'\ 4E'\ 4G'\ 4c'\	8ggg\L	ff
.	8fff#\J	.
[2C\ 2E\ 2G\ 2c\	8ggg\L	.
.	8fff#\	.
.	8ggg\	.
.	8eee\J	.
=660	=660	=660
2C\_ 2F\ 2G\ 2B\	8ddd\L	.
.	8ccc#\	.
.	8ddd\	.
.	8gg\J	.
2C\] 2E\ 2G\ 2c\	8cccn\L	.
.	8bb\	.
.	8ccc\	.
.	8eee\J	.
=661	=661	=661
4CC/	4r	.
4C'\ 4E'\ 4G'\ 4c'\	8gg\L	p
.	8ff#\J	.
[2C\ 2E\ 2G\ 2c\	8gg\L	.
.	8ff#\	.
.	8gg\	.
.	8ee\J	.
=662	=662	=662
2C\_ 2F\ 2G\ 2B\	8dd\L	.
.	8cc#\	.
.	8dd\	.
.	8g\J	.
2C\] 2E\ 2G\ 2c\	8ccn\L	.
.	8b\	.
.	8cc\	.
.	8ee\J	.
=663	=663	=663
4C\ 4F\	8d/L	.
.	8c#/	.
4C\ 4F\	8d/	.
.	8G/J	.
4C\ 4E\	8cn/L	.
.	8B/	.
4C\ 4E\	8c/	.
.	8e/J	.
=664	=664	=664
4C\ 4F\	8d/L	.
.	8c#/	.
4C\ 4F\	8d/	.
.	8G/J	.
4C\ 4E\	8cn/L	.
.	8B/	.
4C\ 4E\	8c/	.
.	8e/J	.
=665	=665	=665
4C\ 4F\	8d/L	<
.	8c#/	.
4C\ 4F\ 4G\	8d/	.
.	8B/J	.
4C\ 4D\ 4F\ 4G\ 4B\	8f/L	.
.	8e/	.
4C\ 4D\ 4F\ 4G\ 4B\	8f/	.
.	8d/J	.
=666	=666	=666
4C\ 4D\ 4F\ 4G\ 4B\	8b/L	.
.	8a#/	.
4C\ 4D\ 4F\ 4G\ 4B\	8b/	.
.	8f/J	.
4C\ 4D\ 4F\ 4G\ 4B\	8dd\L	.
.	8cc#\	.
4C\ 4D\ 4F\ 4G\ 4B\	8dd\	.
.	8b\J	.
=667	=667	=667
4C\ 4D\ 4F\ 4G\ 4B\	8ff\L	f
.	8ee\	.
4C\ 4D\ 4F\ 4G\ 4B\	8ff\	.
.	8dd\J	.
4C\ 4D\ 4F\ 4G\ 4B\	8bb\L	.
.	8aa#\	.
4C\ 4D\ 4F\ 4G\ 4B\	8bb\	.
.	8ff\J	.
=668	=668	=668
4C\ 4D\ 4F\ 4G\ 4B\	8ddd\L	.
.	8ccc#\	.
4C\ 4D\ 4F\ 4G\ 4B\	8ddd\	.
.	8bb\J	.
4C\ 4D\ 4F\ 4G\ 4B\	8fff\L	.
.	8eee\	.
4C\ 4D\ 4F\ 4G\ 4B\	8fff\	.
.	8bb\J	.
=669	=669	=669
4CC/ 4C/	4cccn\	ff
4E'\ 4G'\	4e'/ 4g'/	.
4C'\ 4E'\	4c'/ 4e'/	.
4G'\ 4c'\	4g'/ 4cc'/	.
=670	=670	=670
4E'\ 4G'\	4e'/ 4g'/	.
4c'\ 4e'\	4cc'\ 4ee'\	.
4G'\ 4c'\	4g'\ 4cc'\	.
*clefG2	*	*
4e'/ 4g'/	4ee'\ 4gg'\	.
=671	=671	=671
4c'/ 4e'/	4cc'\ 4ee'\	.
4g'/ 4cc'/	4gg'\ 4ccc'\	.
4e'/ 4g'/	4ee'\ 4gg'\	.
4cc'\ 4ee'\	4ccc'\ 4eee'\	.
=672	=672	=672
4g'\ 4cc'\	4gg'\ 4ccc'\	.
4ee'\ 4gg'\	4eee'\ 4ggg'\	.
4cc'\ 4ee'\	4ccc'\ 4eee'\	.
4ee'\ 4gg'\	4eee'\ 4ggg'\	.
=673	=673	=673
4cc\ 4ee\	4ccc\ 4eee\	.
4r	4r	.
2r	2r	.
=674	=674	=674
4e/ 4g/	4ee\ 4gg\	>
4r	4r	.
2r	2r	.
=675	=675	=675
4c/ 4e/	4cc\ 4ee\	.
4r	4r	.
2r	2r	.
*clefF4	*	*
=676	=676	=676
4E\ 4G\	4e/ 4g/	.
4r	4r	.
2r	2r	.
=677	=677	=677
4C/ 4E/	4c/ 4e/	.
4r	4r	.
2r	2r	.
*clefG2	*	*
=678	=678	=678
4e/ 4g/	4ee\ 4gg\	.
4r	4r	.
4e/ 4g/	4ee\ 4gg\	.
4r	4r	.
=679	=679	=679
4c/ 4e/	4cc\ 4ee\	.
4r	4r	.
2r	2r	.
*clefF4	*	*
=680	=680	=680
4CC'/ 4EE'/ 4GG'/ 4C'/	4gg'\ 4ccc'\ 4eee'\ 4ggg'\	ff
4r	4r	.
4CC'/ 4EE'/ 4GG'/ 4C'/	4gg'\ 4ccc'\ 4eee'\ 4ggg'\	.
4r	4r	.
=681	=681	=681
4CC'/ 4EE'/ 4GG'/ 4C'/	4ee'\ 4gg'\ 4ccc'\ 4eee'\	.
4r	4r	.
2r	2r	.
=682	=682	=682
4CC'/ 4EE'/ 4GG'/ 4C'/	4e'/ 4g'/ 4cc'/ 4ee'/	f
4r	4r	.
2r	2r	.
=683	=683	=683
4CC'/ 4EE'/ 4GG'/ 4C'/	4c'/ 4e'/ 4g'/ 4cc'/	f
4r	4r	.
2r	2r	.
==	==	==
*-	*-	*-
!!!ENC: Craig Stuart Sapp
!!!END: 2007/11/27/
